(G-CODE GENERATED BY FLATCAM v8.991 - www.flatcam.org - Version Date: 2019/12/27)

(Name: Drill_PTH_Through.DRL_cnc)
(Type: G-code from Excellon)
(Units: MM)

(Created on Thursday, 11 July 2024 at 10:26)

(Feedrate: 300.0 mm/min)
(Feedrate rapids 1500.0 mm/min)

(Z_Cut: -2.2 mm)
(Z_Move: 2.0 mm)
(Z Toolchange: 15.0 mm)
(X,Y Toolchange: 0.0000, 0.0000 mm)
(Z Start: None mm)
(Z End: 0.5 mm)
(Steps per circle: 64)
(Preprocessor Excellon: default)

(X range:    4.3825 ...   42.1325  mm)
(Y range:    7.8585 ...   37.4805  mm)

(Spindle Speed: None RPM)
G21
G90
G94




G01 F300.00
G00 Z2.0000

M03
G00 X15.1930 Y8.7630
G01 Z-2.2000
G01 Z0
G00 Z2.0000
G00 X10.1130 Y8.7630
G01 Z-2.2000
G01 Z0
G00 Z2.0000
G00 X5.0330 Y8.7630
G01 Z-2.2000
G01 Z0
G00 Z2.0000
G00 X8.7520 Y36.8300
G01 Z-2.2000
G01 Z0
G00 Z2.0000
G00 X13.7600 Y36.8300
G01 Z-2.2000
G01 Z0
G00 Z2.0000
G00 X19.4200 Y36.8300
G01 Z-2.2000
G01 Z0
G00 Z2.0000
G00 X24.4280 Y36.8300
G01 Z-2.2000
G01 Z0
G00 Z2.0000
G00 X41.4820 Y32.4760
G01 Z-2.2000
G01 Z0
G00 Z2.0000
G00 X41.4820 Y27.4680
G01 Z-2.2000
G01 Z0
G00 Z2.0000
G00 X41.4820 Y21.9350
G01 Z-2.2000
G01 Z0
G00 Z2.0000
G00 X41.4820 Y16.9270
G01 Z-2.2000
G01 Z0
G00 Z2.0000
G00 X31.0320 Y8.5090
G01 Z-2.2000
G01 Z0
G00 Z2.0000
G00 X26.0240 Y8.5090
G01 Z-2.2000
G01 Z0
G00 Z2.0000
M05
G00 Z0.50
G00 X0.0 Y0.0

