(G-CODE GENERATED BY FLATCAM v8.991 - www.flatcam.org - Version Date: 2019/12/27)

(Name: Gerber_BottomLayer.GBL_iso_cnc)
(Type: G-code from Geometry)
(Units: MM)

(Created on Thursday, 11 July 2024 at 16:15)

(TOOL DIAMETER: 0.2 mm)
(Feedrate: 120.0 mm/min)
(Feedrate_Z: 60.0 mm/min)
(Feedrate rapids 1500.0 mm/min)

(Z_Cut: -0.09 mm)
(Z_Move: 2.0 mm)
(Z Toolchange: 15.0 mm)
(X,Y Toolchange: 0.0000, 0.0000 mm)
(Z Start: None mm)
(Z End: 15.0 mm)
(Steps per circle: 64)
(Preprocessor Geometry: default)

(X range:    3.2139 ...   43.3010  mm)
(Y range:    2.5167 ...   48.1563  mm)

(Spindle Speed: None RPM)
G21
G90
G94




G01 F120.00
G00 Z2.0000

M03
G00 X3.6126 Y9.8997
G01 F60.00
G01 Z-0.0900
G01 F120.00
G01 X3.6013 Y9.8858
G01 X3.5428 Y9.8070
G01 X3.4981 Y9.7401
G01 X3.4477 Y9.6559
G01 X3.4097 Y9.5850
G01 X3.3678 Y9.4962
G01 X3.3370 Y9.4219
G01 X3.3039 Y9.3295
G01 X3.2806 Y9.2525
G01 X3.2567 Y9.1573
G01 X3.2410 Y9.0784
G01 X3.2266 Y8.9813
G01 X3.2187 Y8.9012
G01 X3.2139 Y8.8032
G01 X3.2139 Y8.7227
G01 X3.2187 Y8.6247
G01 X3.2266 Y8.5446
G01 X3.2410 Y8.4476
G01 X3.2567 Y8.3686
G01 X3.2806 Y8.2734
G01 X3.3039 Y8.1964
G01 X3.3370 Y8.1040
G01 X3.3678 Y8.0297
G01 X3.4097 Y7.9410
G01 X3.4477 Y7.8700
G01 X3.4981 Y7.7858
G01 X3.5428 Y7.7189
G01 X3.6013 Y7.6401
G01 X3.6523 Y7.5779
G01 X3.7182 Y7.5052
G01 X3.7751 Y7.4483
G01 X3.8478 Y7.3824
G01 X3.9101 Y7.3313
G01 X3.9889 Y7.2729
G01 X4.0558 Y7.2282
G01 X4.1400 Y7.1777
G01 X4.2109 Y7.1398
G01 X4.2996 Y7.0978
G01 X4.3740 Y7.0670
G01 X4.4664 Y7.0340
G01 X4.5434 Y7.0106
G01 X4.6386 Y6.9868
G01 X4.7175 Y6.9711
G01 X4.8146 Y6.9567
G01 X4.8947 Y6.9488
G01 X4.9927 Y6.9440
G01 X5.0732 Y6.9440
G01 X5.1712 Y6.9488
G01 X5.2513 Y6.9567
G01 X5.3483 Y6.9711
G01 X5.4273 Y6.9868
G01 X5.5224 Y7.0106
G01 X5.5995 Y7.0340
G01 X5.6919 Y7.0670
G01 X5.7662 Y7.0978
G01 X5.8549 Y7.1398
G01 X5.9259 Y7.1777
G01 X6.0101 Y7.2282
G01 X6.0770 Y7.2729
G01 X6.1558 Y7.3313
G01 X6.2180 Y7.3824
G01 X6.2907 Y7.4483
G01 X6.3476 Y7.5052
G01 X6.4135 Y7.5779
G01 X6.4646 Y7.6401
G01 X6.5230 Y7.7189
G01 X6.5677 Y7.7858
G01 X6.6182 Y7.8700
G01 X6.6561 Y7.9410
G01 X6.6981 Y8.0297
G01 X6.7289 Y8.1040
G01 X6.7619 Y8.1964
G01 X6.7853 Y8.2734
G01 X6.8091 Y8.3686
G01 X6.8248 Y8.4476
G01 X6.8392 Y8.5446
G01 X6.8471 Y8.6247
G01 X6.8519 Y8.7227
G01 X6.8519 Y8.8032
G01 X6.8471 Y8.9012
G01 X6.8392 Y8.9813
G01 X6.8248 Y9.0784
G01 X6.8091 Y9.1573
G01 X6.7853 Y9.2525
G01 X6.7619 Y9.3295
G01 X6.7289 Y9.4219
G01 X6.6981 Y9.4962
G01 X6.6561 Y9.5850
G01 X6.6182 Y9.6559
G01 X6.5677 Y9.7401
G01 X6.5230 Y9.8070
G01 X6.4646 Y9.8858
G01 X6.4532 Y9.8996
G01 X6.4532 Y32.5230
G01 X8.9521 Y35.0219
G01 X8.9699 Y35.0237
G01 X9.0670 Y35.0381
G01 X9.1459 Y35.0538
G01 X9.2411 Y35.0776
G01 X9.3181 Y35.1010
G01 X9.4105 Y35.1341
G01 X9.4848 Y35.1648
G01 X9.5735 Y35.2068
G01 X9.6445 Y35.2447
G01 X9.7287 Y35.2952
G01 X9.7956 Y35.3399
G01 X9.8744 Y35.3984
G01 X9.9366 Y35.4494
G01 X10.0093 Y35.5153
G01 X10.0662 Y35.5722
G01 X10.1321 Y35.6449
G01 X10.1832 Y35.7071
G01 X10.2416 Y35.7860
G01 X10.2864 Y35.8529
G01 X10.3368 Y35.9370
G01 X10.3747 Y36.0080
G01 X10.4167 Y36.0967
G01 X10.4475 Y36.1711
G01 X10.4806 Y36.2635
G01 X10.5039 Y36.3405
G01 X10.5278 Y36.4357
G01 X10.5435 Y36.5146
G01 X10.5579 Y36.6117
G01 X10.5596 Y36.6295
G01 X19.2459 Y45.3157
G01 X30.4797 Y45.3157
G01 X37.1407 Y38.6547
G01 X37.1407 Y35.3975
G01 X37.1417 Y35.3572
G01 X37.1446 Y35.2984
G01 X37.1525 Y35.2183
G01 X37.1611 Y35.1600
G01 X37.1768 Y35.0811
G01 X37.1911 Y35.0240
G01 X37.2145 Y34.9470
G01 X37.2343 Y34.8915
G01 X37.2651 Y34.8171
G01 X37.2903 Y34.7639
G01 X37.3282 Y34.6929
G01 X37.3585 Y34.6424
G01 X37.4032 Y34.5755
G01 X37.4383 Y34.5282
G01 X37.4894 Y34.4660
G01 X37.5289 Y34.4223
G01 X37.5567 Y34.3932
G01 X39.6739 Y32.2759
G01 X39.6757 Y32.2581
G01 X39.6901 Y32.1610
G01 X39.7058 Y32.0821
G01 X39.7296 Y31.9869
G01 X39.7530 Y31.9099
G01 X39.7861 Y31.8175
G01 X39.8168 Y31.7432
G01 X39.8588 Y31.6544
G01 X39.8967 Y31.5835
G01 X39.9472 Y31.4993
G01 X39.9919 Y31.4324
G01 X40.0504 Y31.3536
G01 X40.1014 Y31.2914
G01 X40.1673 Y31.2187
G01 X40.2242 Y31.1618
G01 X40.2969 Y31.0958
G01 X40.3591 Y31.0448
G01 X40.4380 Y30.9863
G01 X40.5049 Y30.9416
G01 X40.5890 Y30.8912
G01 X40.6600 Y30.8532
G01 X40.7487 Y30.8113
G01 X40.8231 Y30.7805
G01 X40.9155 Y30.7474
G01 X40.9925 Y30.7241
G01 X41.0877 Y30.7002
G01 X41.1666 Y30.6845
G01 X41.2637 Y30.6701
G01 X41.3437 Y30.6622
G01 X41.4418 Y30.6574
G01 X41.5222 Y30.6574
G01 X41.6203 Y30.6622
G01 X41.7003 Y30.6701
G01 X41.7974 Y30.6845
G01 X41.8763 Y30.7002
G01 X41.9715 Y30.7241
G01 X42.0485 Y30.7474
G01 X42.1409 Y30.7805
G01 X42.2153 Y30.8113
G01 X42.3040 Y30.8532
G01 X42.3750 Y30.8912
G01 X42.4591 Y30.9416
G01 X42.5260 Y30.9863
G01 X42.6049 Y31.0448
G01 X42.6671 Y31.0958
G01 X42.7398 Y31.1618
G01 X42.7967 Y31.2187
G01 X42.8626 Y31.2914
G01 X42.9136 Y31.3536
G01 X42.9721 Y31.4324
G01 X43.0168 Y31.4993
G01 X43.0673 Y31.5835
G01 X43.1052 Y31.6544
G01 X43.1472 Y31.7432
G01 X43.1779 Y31.8175
G01 X43.2110 Y31.9099
G01 X43.2344 Y31.9869
G01 X43.2582 Y32.0821
G01 X43.2739 Y32.1610
G01 X43.2883 Y32.2581
G01 X43.2962 Y32.3382
G01 X43.3010 Y32.4362
G01 X43.3010 Y32.5167
G01 X43.2962 Y32.6147
G01 X43.2883 Y32.6948
G01 X43.2739 Y32.7918
G01 X43.2582 Y32.8708
G01 X43.2344 Y32.9660
G01 X43.2110 Y33.0430
G01 X43.1779 Y33.1354
G01 X43.1472 Y33.2097
G01 X43.1052 Y33.2984
G01 X43.0673 Y33.3694
G01 X43.0168 Y33.4536
G01 X42.9721 Y33.5205
G01 X42.9136 Y33.5993
G01 X42.8626 Y33.6615
G01 X42.7967 Y33.7342
G01 X42.7398 Y33.7911
G01 X42.6671 Y33.8570
G01 X42.6049 Y33.9081
G01 X42.5260 Y33.9665
G01 X42.4591 Y34.0112
G01 X42.3750 Y34.0617
G01 X42.3040 Y34.0996
G01 X42.2153 Y34.1416
G01 X42.1409 Y34.1724
G01 X42.0485 Y34.2054
G01 X41.9715 Y34.2288
G01 X41.8763 Y34.2527
G01 X41.7974 Y34.2683
G01 X41.7003 Y34.2827
G01 X41.6826 Y34.2845
G01 X39.9813 Y35.9858
G01 X39.9813 Y39.2430
G01 X39.9803 Y39.2832
G01 X39.9774 Y39.3421
G01 X39.9695 Y39.4222
G01 X39.9609 Y39.4804
G01 X39.9452 Y39.5594
G01 X39.9309 Y39.6165
G01 X39.9075 Y39.6935
G01 X39.8877 Y39.7490
G01 X39.8569 Y39.8233
G01 X39.8317 Y39.8766
G01 X39.7938 Y39.9475
G01 X39.7635 Y39.9981
G01 X39.7188 Y40.0650
G01 X39.6837 Y40.1123
G01 X39.6326 Y40.1745
G01 X39.5931 Y40.2182
G01 X39.5653 Y40.2473
G01 X32.0723 Y47.7403
G01 X32.0432 Y47.7681
G01 X31.9995 Y47.8076
G01 X31.9373 Y47.8587
G01 X31.8900 Y47.8938
G01 X31.8231 Y47.9385
G01 X31.7725 Y47.9688
G01 X31.7016 Y48.0067
G01 X31.6483 Y48.0319
G01 X31.5740 Y48.0627
G01 X31.5185 Y48.0825
G01 X31.4415 Y48.1059
G01 X31.3844 Y48.1202
G01 X31.3054 Y48.1359
G01 X31.2472 Y48.1445
G01 X31.1671 Y48.1524
G01 X31.1082 Y48.1553
G01 X31.0680 Y48.1563
G01 X18.6576 Y48.1563
G01 X18.6173 Y48.1553
G01 X18.5585 Y48.1524
G01 X18.4784 Y48.1445
G01 X18.4201 Y48.1359
G01 X18.3412 Y48.1202
G01 X18.2841 Y48.1059
G01 X18.2071 Y48.0825
G01 X18.1516 Y48.0627
G01 X18.0773 Y48.0319
G01 X18.0240 Y48.0067
G01 X17.9530 Y47.9688
G01 X17.9025 Y47.9385
G01 X17.8356 Y47.8938
G01 X17.7883 Y47.8587
G01 X17.7261 Y47.8076
G01 X17.6824 Y47.7681
G01 X17.6533 Y47.7403
G01 X8.5510 Y38.6381
G01 X8.5332 Y38.6363
G01 X8.4361 Y38.6219
G01 X8.3572 Y38.6062
G01 X8.2620 Y38.5824
G01 X8.1850 Y38.5590
G01 X8.0926 Y38.5259
G01 X8.0183 Y38.4952
G01 X7.9296 Y38.4532
G01 X7.8586 Y38.4153
G01 X7.7744 Y38.3648
G01 X7.7075 Y38.3201
G01 X7.6287 Y38.2616
G01 X7.5665 Y38.2106
G01 X7.4938 Y38.1447
G01 X7.4369 Y38.0878
G01 X7.3710 Y38.0151
G01 X7.3199 Y37.9529
G01 X7.2615 Y37.8740
G01 X7.2167 Y37.8071
G01 X7.1663 Y37.7230
G01 X7.1284 Y37.6520
G01 X7.0864 Y37.5633
G01 X7.0556 Y37.4889
G01 X7.0225 Y37.3965
G01 X6.9992 Y37.3195
G01 X6.9753 Y37.2243
G01 X6.9596 Y37.1454
G01 X6.9452 Y37.0483
G01 X6.9435 Y37.0305
G01 X4.0286 Y34.1156
G01 X4.0009 Y34.0865
G01 X3.9613 Y34.0428
G01 X3.9103 Y33.9806
G01 X3.8752 Y33.9333
G01 X3.8305 Y33.8664
G01 X3.8002 Y33.8159
G01 X3.7622 Y33.7449
G01 X3.7371 Y33.6916
G01 X3.7063 Y33.6173
G01 X3.6864 Y33.5618
G01 X3.6631 Y33.4848
G01 X3.6487 Y33.4277
G01 X3.6330 Y33.3488
G01 X3.6244 Y33.2905
G01 X3.6165 Y33.2104
G01 X3.6136 Y33.1516
G01 X3.6126 Y33.1113
G01 X3.6126 Y9.8997
G00 Z2.0000
G00 X3.7926 Y9.8348
G01 F60.00
G01 Z-0.0900
G01 F120.00
G01 X3.7857 Y9.8272
G01 X3.7459 Y9.7786
G01 X3.6874 Y9.6998
G01 X3.6525 Y9.6476
G01 X3.6021 Y9.5634
G01 X3.5724 Y9.5080
G01 X3.5305 Y9.4193
G01 X3.5065 Y9.3613
G01 X3.4734 Y9.2689
G01 X3.4552 Y9.2088
G01 X3.4313 Y9.1136
G01 X3.4191 Y9.0520
G01 X3.4047 Y8.9549
G01 X3.3985 Y8.8924
G01 X3.3937 Y8.7944
G01 X3.3937 Y8.7316
G01 X3.3985 Y8.6335
G01 X3.4047 Y8.5710
G01 X3.4191 Y8.4740
G01 X3.4313 Y8.4124
G01 X3.4552 Y8.3172
G01 X3.4734 Y8.2571
G01 X3.5065 Y8.1647
G01 X3.5305 Y8.1067
G01 X3.5724 Y8.0179
G01 X3.6021 Y7.9625
G01 X3.6525 Y7.8784
G01 X3.6874 Y7.8262
G01 X3.7459 Y7.7473
G01 X3.7857 Y7.6988
G01 X3.8516 Y7.6261
G01 X3.8960 Y7.5817
G01 X3.9687 Y7.5158
G01 X4.0173 Y7.4759
G01 X4.0961 Y7.4174
G01 X4.1483 Y7.3826
G01 X4.2325 Y7.3321
G01 X4.2879 Y7.3025
G01 X4.3766 Y7.2605
G01 X4.4346 Y7.2365
G01 X4.5270 Y7.2034
G01 X4.5871 Y7.1852
G01 X4.6823 Y7.1614
G01 X4.7439 Y7.1491
G01 X4.8410 Y7.1347
G01 X4.9035 Y7.1286
G01 X5.0015 Y7.1237
G01 X5.0643 Y7.1237
G01 X5.1623 Y7.1286
G01 X5.2248 Y7.1347
G01 X5.3219 Y7.1491
G01 X5.3835 Y7.1614
G01 X5.4787 Y7.1852
G01 X5.5388 Y7.2034
G01 X5.6312 Y7.2365
G01 X5.6892 Y7.2605
G01 X5.7780 Y7.3025
G01 X5.8333 Y7.3321
G01 X5.9175 Y7.3826
G01 X5.9697 Y7.4174
G01 X6.0486 Y7.4759
G01 X6.0971 Y7.5158
G01 X6.1698 Y7.5817
G01 X6.2142 Y7.6261
G01 X6.2801 Y7.6988
G01 X6.3200 Y7.7473
G01 X6.3784 Y7.8262
G01 X6.4133 Y7.8784
G01 X6.4638 Y7.9625
G01 X6.4934 Y8.0179
G01 X6.5354 Y8.1067
G01 X6.5594 Y8.1647
G01 X6.5924 Y8.2571
G01 X6.6107 Y8.3172
G01 X6.6345 Y8.4124
G01 X6.6468 Y8.4740
G01 X6.6612 Y8.5710
G01 X6.6673 Y8.6335
G01 X6.6721 Y8.7316
G01 X6.6721 Y8.7944
G01 X6.6673 Y8.8924
G01 X6.6612 Y8.9549
G01 X6.6468 Y9.0520
G01 X6.6345 Y9.1136
G01 X6.6107 Y9.2088
G01 X6.5924 Y9.2689
G01 X6.5594 Y9.3613
G01 X6.5354 Y9.4193
G01 X6.4934 Y9.5080
G01 X6.4638 Y9.5634
G01 X6.4133 Y9.6476
G01 X6.3784 Y9.6998
G01 X6.3200 Y9.7786
G01 X6.2801 Y9.8272
G01 X6.2732 Y9.8348
G01 X6.2732 Y32.5976
G01 X8.8707 Y35.1951
G01 X8.8810 Y35.1956
G01 X8.9435 Y35.2017
G01 X9.0405 Y35.2161
G01 X9.1021 Y35.2284
G01 X9.1973 Y35.2522
G01 X9.2574 Y35.2705
G01 X9.3498 Y35.3035
G01 X9.4079 Y35.3276
G01 X9.4966 Y35.3695
G01 X9.5520 Y35.3991
G01 X9.6361 Y35.4496
G01 X9.6884 Y35.4845
G01 X9.7672 Y35.5429
G01 X9.8157 Y35.5828
G01 X9.8885 Y35.6487
G01 X9.9329 Y35.6931
G01 X9.9988 Y35.7658
G01 X10.0386 Y35.8144
G01 X10.0971 Y35.8932
G01 X10.1320 Y35.9454
G01 X10.1824 Y36.0296
G01 X10.2120 Y36.0850
G01 X10.2540 Y36.1737
G01 X10.2780 Y36.2317
G01 X10.3111 Y36.3241
G01 X10.3293 Y36.3842
G01 X10.3532 Y36.4794
G01 X10.3654 Y36.5410
G01 X10.3798 Y36.6381
G01 X10.3860 Y36.7006
G01 X10.3865 Y36.7109
G01 X19.1713 Y45.4957
G01 X30.5543 Y45.4957
G01 X37.3207 Y38.7293
G01 X37.3207 Y35.3975
G01 X37.3215 Y35.3661
G01 X37.3244 Y35.3072
G01 X37.3305 Y35.2447
G01 X37.3392 Y35.1864
G01 X37.3514 Y35.1248
G01 X37.3657 Y35.0677
G01 X37.3840 Y35.0076
G01 X37.4038 Y34.9521
G01 X37.4278 Y34.8941
G01 X37.4530 Y34.8408
G01 X37.4826 Y34.7855
G01 X37.5129 Y34.7349
G01 X37.5478 Y34.6827
G01 X37.5829 Y34.6354
G01 X37.6228 Y34.5868
G01 X37.6623 Y34.5432
G01 X37.6840 Y34.5204
G01 X39.8471 Y32.3573
G01 X39.8476 Y32.3470
G01 X39.8537 Y32.2845
G01 X39.8681 Y32.1874
G01 X39.8804 Y32.1258
G01 X39.9042 Y32.0306
G01 X39.9225 Y31.9705
G01 X39.9555 Y31.8781
G01 X39.9796 Y31.8201
G01 X40.0215 Y31.7314
G01 X40.0511 Y31.6760
G01 X40.1016 Y31.5918
G01 X40.1365 Y31.5396
G01 X40.1949 Y31.4608
G01 X40.2348 Y31.4122
G01 X40.3007 Y31.3395
G01 X40.3451 Y31.2951
G01 X40.4178 Y31.2292
G01 X40.4664 Y31.1894
G01 X40.5452 Y31.1309
G01 X40.5974 Y31.0960
G01 X40.6816 Y31.0456
G01 X40.7370 Y31.0160
G01 X40.8257 Y30.9740
G01 X40.8837 Y30.9500
G01 X40.9761 Y30.9169
G01 X41.0362 Y30.8987
G01 X41.1314 Y30.8748
G01 X41.1930 Y30.8626
G01 X41.2901 Y30.8482
G01 X41.3526 Y30.8420
G01 X41.4506 Y30.8372
G01 X41.5134 Y30.8372
G01 X41.6114 Y30.8420
G01 X41.6739 Y30.8482
G01 X41.7710 Y30.8626
G01 X41.8326 Y30.8748
G01 X41.9278 Y30.8987
G01 X41.9879 Y30.9169
G01 X42.0803 Y30.9500
G01 X42.1383 Y30.9740
G01 X42.2270 Y31.0160
G01 X42.2824 Y31.0456
G01 X42.3666 Y31.0960
G01 X42.4188 Y31.1309
G01 X42.4976 Y31.1894
G01 X42.5462 Y31.2292
G01 X42.6189 Y31.2951
G01 X42.6633 Y31.3395
G01 X42.7292 Y31.4122
G01 X42.7691 Y31.4608
G01 X42.8275 Y31.5396
G01 X42.8624 Y31.5918
G01 X42.9129 Y31.6760
G01 X42.9425 Y31.7314
G01 X42.9844 Y31.8201
G01 X43.0085 Y31.8781
G01 X43.0415 Y31.9705
G01 X43.0598 Y32.0306
G01 X43.0836 Y32.1258
G01 X43.0959 Y32.1874
G01 X43.1103 Y32.2845
G01 X43.1164 Y32.3470
G01 X43.1212 Y32.4450
G01 X43.1212 Y32.5078
G01 X43.1164 Y32.6059
G01 X43.1103 Y32.6684
G01 X43.0959 Y32.7654
G01 X43.0836 Y32.8270
G01 X43.0598 Y32.9222
G01 X43.0415 Y32.9823
G01 X43.0085 Y33.0747
G01 X42.9844 Y33.1328
G01 X42.9425 Y33.2215
G01 X42.9129 Y33.2769
G01 X42.8624 Y33.3610
G01 X42.8275 Y33.4133
G01 X42.7691 Y33.4921
G01 X42.7292 Y33.5406
G01 X42.6633 Y33.6133
G01 X42.6189 Y33.6578
G01 X42.5462 Y33.7237
G01 X42.4976 Y33.7635
G01 X42.4188 Y33.8220
G01 X42.3666 Y33.8569
G01 X42.2824 Y33.9073
G01 X42.2270 Y33.9369
G01 X42.1383 Y33.9789
G01 X42.0803 Y34.0029
G01 X41.9879 Y34.0360
G01 X41.9278 Y34.0542
G01 X41.8326 Y34.0780
G01 X41.7710 Y34.0903
G01 X41.6739 Y34.1047
G01 X41.6114 Y34.1109
G01 X41.6012 Y34.1114
G01 X39.8013 Y35.9112
G01 X39.8013 Y39.2430
G01 X39.8005 Y39.2744
G01 X39.7976 Y39.3332
G01 X39.7915 Y39.3957
G01 X39.7828 Y39.4540
G01 X39.7706 Y39.5156
G01 X39.7563 Y39.5728
G01 X39.7380 Y39.6329
G01 X39.7182 Y39.6883
G01 X39.6942 Y39.7464
G01 X39.6690 Y39.7996
G01 X39.6394 Y39.8550
G01 X39.6091 Y39.9055
G01 X39.5742 Y39.9578
G01 X39.5391 Y40.0051
G01 X39.4992 Y40.0536
G01 X39.4597 Y40.0973
G01 X39.4380 Y40.1200
G01 X31.9450 Y47.6130
G01 X31.9223 Y47.6347
G01 X31.8786 Y47.6742
G01 X31.8301 Y47.7141
G01 X31.7828 Y47.7492
G01 X31.7305 Y47.7841
G01 X31.6800 Y47.8144
G01 X31.6246 Y47.8440
G01 X31.5714 Y47.8692
G01 X31.5133 Y47.8932
G01 X31.4579 Y47.9130
G01 X31.3978 Y47.9313
G01 X31.3406 Y47.9456
G01 X31.2790 Y47.9578
G01 X31.2207 Y47.9665
G01 X31.1582 Y47.9726
G01 X31.0994 Y47.9755
G01 X31.0680 Y47.9763
G01 X18.6576 Y47.9763
G01 X18.6262 Y47.9755
G01 X18.5673 Y47.9726
G01 X18.5048 Y47.9665
G01 X18.4466 Y47.9578
G01 X18.3850 Y47.9456
G01 X18.3278 Y47.9313
G01 X18.2677 Y47.9130
G01 X18.2122 Y47.8932
G01 X18.1542 Y47.8692
G01 X18.1010 Y47.8440
G01 X18.0456 Y47.8144
G01 X17.9950 Y47.7841
G01 X17.9428 Y47.7492
G01 X17.8955 Y47.7141
G01 X17.8470 Y47.6742
G01 X17.8033 Y47.6347
G01 X17.7806 Y47.6130
G01 X8.6324 Y38.4649
G01 X8.6221 Y38.4644
G01 X8.5596 Y38.4583
G01 X8.4626 Y38.4439
G01 X8.4010 Y38.4316
G01 X8.3058 Y38.4078
G01 X8.2457 Y38.3895
G01 X8.1533 Y38.3565
G01 X8.0952 Y38.3324
G01 X8.0065 Y38.2905
G01 X7.9511 Y38.2609
G01 X7.8670 Y38.2104
G01 X7.8147 Y38.1755
G01 X7.7359 Y38.1171
G01 X7.6874 Y38.0772
G01 X7.6146 Y38.0113
G01 X7.5702 Y37.9669
G01 X7.5043 Y37.8942
G01 X7.4645 Y37.8456
G01 X7.4060 Y37.7668
G01 X7.3711 Y37.7146
G01 X7.3207 Y37.6304
G01 X7.2911 Y37.5750
G01 X7.2491 Y37.4863
G01 X7.2251 Y37.4283
G01 X7.1920 Y37.3359
G01 X7.1738 Y37.2758
G01 X7.1499 Y37.1806
G01 X7.1377 Y37.1190
G01 X7.1233 Y37.0219
G01 X7.1171 Y36.9594
G01 X7.1166 Y36.9491
G01 X4.1559 Y33.9883
G01 X4.1342 Y33.9656
G01 X4.0947 Y33.9219
G01 X4.0548 Y33.8734
G01 X4.0197 Y33.8261
G01 X3.9849 Y33.7739
G01 X3.9546 Y33.7233
G01 X3.9250 Y33.6679
G01 X3.8998 Y33.6147
G01 X3.8757 Y33.5567
G01 X3.8559 Y33.5012
G01 X3.8377 Y33.4411
G01 X3.8234 Y33.3839
G01 X3.8111 Y33.3223
G01 X3.8025 Y33.2641
G01 X3.7963 Y33.2016
G01 X3.7934 Y33.1427
G01 X3.7926 Y33.1113
G01 X3.7926 Y9.8348
G00 Z2.0000
G00 X3.9726 Y9.7654
G01 F60.00
G01 Z-0.0900
G01 F120.00
G01 X3.9191 Y9.7063
G01 X3.8904 Y9.6714
G01 X3.8320 Y9.5926
G01 X3.8069 Y9.5550
G01 X3.7564 Y9.4709
G01 X3.7352 Y9.4310
G01 X3.6932 Y9.3423
G01 X3.6759 Y9.3006
G01 X3.6429 Y9.2082
G01 X3.6298 Y9.1650
G01 X3.6059 Y9.0698
G01 X3.5971 Y9.0256
G01 X3.5827 Y8.9285
G01 X3.5783 Y8.8836
G01 X3.5735 Y8.7855
G01 X3.5735 Y8.7404
G01 X3.5783 Y8.6424
G01 X3.5827 Y8.5975
G01 X3.5971 Y8.5004
G01 X3.6059 Y8.4561
G01 X3.6298 Y8.3609
G01 X3.6429 Y8.3177
G01 X3.6759 Y8.2253
G01 X3.6932 Y8.1836
G01 X3.7352 Y8.0949
G01 X3.7564 Y8.0551
G01 X3.8069 Y7.9709
G01 X3.8320 Y7.9334
G01 X3.8904 Y7.8546
G01 X3.9191 Y7.8197
G01 X3.9850 Y7.7469
G01 X4.0169 Y7.7150
G01 X4.0896 Y7.6491
G01 X4.1245 Y7.6205
G01 X4.2033 Y7.5620
G01 X4.2409 Y7.5369
G01 X4.3250 Y7.4865
G01 X4.3648 Y7.4652
G01 X4.4536 Y7.4233
G01 X4.4953 Y7.4060
G01 X4.5877 Y7.3729
G01 X4.6309 Y7.3598
G01 X4.7261 Y7.3360
G01 X4.7703 Y7.3272
G01 X4.8674 Y7.3128
G01 X4.9123 Y7.3083
G01 X5.0103 Y7.3035
G01 X5.0555 Y7.3035
G01 X5.1535 Y7.3083
G01 X5.1984 Y7.3128
G01 X5.2955 Y7.3272
G01 X5.3398 Y7.3360
G01 X5.4350 Y7.3598
G01 X5.4782 Y7.3729
G01 X5.5706 Y7.4060
G01 X5.6123 Y7.4233
G01 X5.7010 Y7.4652
G01 X5.7408 Y7.4865
G01 X5.8250 Y7.5369
G01 X5.8625 Y7.5620
G01 X5.9413 Y7.6205
G01 X5.9762 Y7.6491
G01 X6.0489 Y7.7150
G01 X6.0809 Y7.7469
G01 X6.1468 Y7.8197
G01 X6.1754 Y7.8546
G01 X6.2339 Y7.9334
G01 X6.2589 Y7.9709
G01 X6.3094 Y8.0551
G01 X6.3307 Y8.0949
G01 X6.3726 Y8.1836
G01 X6.3899 Y8.2253
G01 X6.4230 Y8.3177
G01 X6.4361 Y8.3609
G01 X6.4599 Y8.4561
G01 X6.4687 Y8.5004
G01 X6.4831 Y8.5975
G01 X6.4876 Y8.6424
G01 X6.4924 Y8.7404
G01 X6.4924 Y8.7855
G01 X6.4876 Y8.8836
G01 X6.4831 Y8.9285
G01 X6.4687 Y9.0256
G01 X6.4599 Y9.0698
G01 X6.4361 Y9.1650
G01 X6.4230 Y9.2082
G01 X6.3899 Y9.3006
G01 X6.3726 Y9.3423
G01 X6.3307 Y9.4310
G01 X6.3094 Y9.4709
G01 X6.2589 Y9.5550
G01 X6.2339 Y9.5926
G01 X6.1754 Y9.6714
G01 X6.1468 Y9.7063
G01 X6.0932 Y9.7653
G01 X6.0932 Y32.6721
G01 X8.7925 Y35.3715
G01 X8.8721 Y35.3754
G01 X8.9171 Y35.3798
G01 X9.0141 Y35.3942
G01 X9.0584 Y35.4030
G01 X9.1536 Y35.4268
G01 X9.1968 Y35.4399
G01 X9.2892 Y35.4730
G01 X9.3309 Y35.4903
G01 X9.4196 Y35.5322
G01 X9.4594 Y35.5535
G01 X9.5436 Y35.6040
G01 X9.5811 Y35.6291
G01 X9.6600 Y35.6875
G01 X9.6949 Y35.7162
G01 X9.7676 Y35.7821
G01 X9.7995 Y35.8140
G01 X9.8654 Y35.8867
G01 X9.8940 Y35.9216
G01 X9.9525 Y36.0004
G01 X9.9776 Y36.0379
G01 X10.0280 Y36.1221
G01 X10.0493 Y36.1619
G01 X10.0913 Y36.2506
G01 X10.1085 Y36.2923
G01 X10.1416 Y36.3847
G01 X10.1547 Y36.4279
G01 X10.1785 Y36.5231
G01 X10.1874 Y36.5674
G01 X10.2018 Y36.6645
G01 X10.2062 Y36.7094
G01 X10.2101 Y36.7891
G01 X19.0968 Y45.6757
G01 X30.6288 Y45.6757
G01 X37.5007 Y38.8038
G01 X37.5007 Y35.3975
G01 X37.5013 Y35.3749
G01 X37.5041 Y35.3160
G01 X37.5086 Y35.2711
G01 X37.5172 Y35.2129
G01 X37.5260 Y35.1686
G01 X37.5403 Y35.1114
G01 X37.5534 Y35.0682
G01 X37.5733 Y35.0128
G01 X37.5906 Y34.9711
G01 X37.6157 Y34.9178
G01 X37.6370 Y34.8780
G01 X37.6673 Y34.8275
G01 X37.6924 Y34.7899
G01 X37.7275 Y34.7426
G01 X37.7561 Y34.7077
G01 X37.7957 Y34.6641
G01 X37.8113 Y34.6477
G01 X40.0235 Y32.4355
G01 X40.0274 Y32.3559
G01 X40.0318 Y32.3109
G01 X40.0462 Y32.2139
G01 X40.0550 Y32.1696
G01 X40.0788 Y32.0744
G01 X40.0919 Y32.0312
G01 X40.1250 Y31.9388
G01 X40.1423 Y31.8971
G01 X40.1842 Y31.8084
G01 X40.2055 Y31.7686
G01 X40.2560 Y31.6844
G01 X40.2811 Y31.6468
G01 X40.3395 Y31.5680
G01 X40.3682 Y31.5331
G01 X40.4341 Y31.4604
G01 X40.4660 Y31.4285
G01 X40.5387 Y31.3626
G01 X40.5736 Y31.3340
G01 X40.6524 Y31.2755
G01 X40.6899 Y31.2504
G01 X40.7741 Y31.2000
G01 X40.8139 Y31.1787
G01 X40.9026 Y31.1367
G01 X40.9443 Y31.1195
G01 X41.0367 Y31.0864
G01 X41.0799 Y31.0733
G01 X41.1751 Y31.0494
G01 X41.2194 Y31.0406
G01 X41.3165 Y31.0262
G01 X41.3614 Y31.0218
G01 X41.4594 Y31.0170
G01 X41.5046 Y31.0170
G01 X41.6026 Y31.0218
G01 X41.6475 Y31.0262
G01 X41.7446 Y31.0406
G01 X41.7889 Y31.0494
G01 X41.8841 Y31.0733
G01 X41.9273 Y31.0864
G01 X42.0197 Y31.1195
G01 X42.0614 Y31.1367
G01 X42.1501 Y31.1787
G01 X42.1899 Y31.2000
G01 X42.2741 Y31.2504
G01 X42.3116 Y31.2755
G01 X42.3904 Y31.3340
G01 X42.4253 Y31.3626
G01 X42.4980 Y31.4285
G01 X42.5299 Y31.4604
G01 X42.5958 Y31.5331
G01 X42.6245 Y31.5680
G01 X42.6829 Y31.6468
G01 X42.7080 Y31.6844
G01 X42.7585 Y31.7686
G01 X42.7798 Y31.8084
G01 X42.8217 Y31.8971
G01 X42.8390 Y31.9388
G01 X42.8721 Y32.0312
G01 X42.8852 Y32.0744
G01 X42.9090 Y32.1696
G01 X42.9178 Y32.2139
G01 X42.9322 Y32.3109
G01 X42.9366 Y32.3559
G01 X42.9414 Y32.4539
G01 X42.9414 Y32.4990
G01 X42.9366 Y32.5970
G01 X42.9322 Y32.6420
G01 X42.9178 Y32.7390
G01 X42.9090 Y32.7833
G01 X42.8852 Y32.8785
G01 X42.8721 Y32.9217
G01 X42.8390 Y33.0141
G01 X42.8217 Y33.0558
G01 X42.7798 Y33.1445
G01 X42.7585 Y33.1843
G01 X42.7080 Y33.2685
G01 X42.6829 Y33.3060
G01 X42.6245 Y33.3849
G01 X42.5958 Y33.4198
G01 X42.5299 Y33.4925
G01 X42.4980 Y33.5244
G01 X42.4253 Y33.5903
G01 X42.3904 Y33.6189
G01 X42.3116 Y33.6774
G01 X42.2741 Y33.7025
G01 X42.1899 Y33.7529
G01 X42.1501 Y33.7742
G01 X42.0614 Y33.8162
G01 X42.0197 Y33.8334
G01 X41.9273 Y33.8665
G01 X41.8841 Y33.8796
G01 X41.7889 Y33.9034
G01 X41.7446 Y33.9122
G01 X41.6475 Y33.9266
G01 X41.6026 Y33.9311
G01 X41.5230 Y33.9350
G01 X39.6213 Y35.8367
G01 X39.6213 Y39.2430
G01 X39.6207 Y39.2656
G01 X39.6179 Y39.3244
G01 X39.6134 Y39.3693
G01 X39.6048 Y39.4276
G01 X39.5960 Y39.4719
G01 X39.5817 Y39.5290
G01 X39.5686 Y39.5722
G01 X39.5487 Y39.6277
G01 X39.5314 Y39.6694
G01 X39.5063 Y39.7227
G01 X39.4850 Y39.7625
G01 X39.4547 Y39.8130
G01 X39.4296 Y39.8505
G01 X39.3945 Y39.8978
G01 X39.3659 Y39.9327
G01 X39.3263 Y39.9764
G01 X39.3107 Y39.9927
G01 X31.8177 Y47.4857
G01 X31.8014 Y47.5013
G01 X31.7577 Y47.5409
G01 X31.7228 Y47.5695
G01 X31.6755 Y47.6046
G01 X31.6380 Y47.6297
G01 X31.5875 Y47.6600
G01 X31.5477 Y47.6813
G01 X31.4944 Y47.7064
G01 X31.4527 Y47.7237
G01 X31.3972 Y47.7436
G01 X31.3540 Y47.7567
G01 X31.2969 Y47.7710
G01 X31.2526 Y47.7798
G01 X31.1943 Y47.7884
G01 X31.1494 Y47.7929
G01 X31.0906 Y47.7957
G01 X31.0680 Y47.7963
G01 X18.6576 Y47.7963
G01 X18.6350 Y47.7957
G01 X18.5762 Y47.7929
G01 X18.5312 Y47.7884
G01 X18.4730 Y47.7798
G01 X18.4287 Y47.7710
G01 X18.3716 Y47.7567
G01 X18.3284 Y47.7436
G01 X18.2729 Y47.7237
G01 X18.2312 Y47.7064
G01 X18.1779 Y47.6813
G01 X18.1381 Y47.6600
G01 X18.0876 Y47.6297
G01 X18.0501 Y47.6046
G01 X18.0027 Y47.5695
G01 X17.9678 Y47.5409
G01 X17.9242 Y47.5013
G01 X17.9078 Y47.4857
G01 X8.7106 Y38.2885
G01 X8.6310 Y38.2846
G01 X8.5860 Y38.2802
G01 X8.4890 Y38.2658
G01 X8.4447 Y38.2570
G01 X8.3495 Y38.2332
G01 X8.3063 Y38.2201
G01 X8.2139 Y38.1870
G01 X8.1722 Y38.1697
G01 X8.0835 Y38.1278
G01 X8.0437 Y38.1065
G01 X7.9595 Y38.0560
G01 X7.9220 Y38.0309
G01 X7.8431 Y37.9725
G01 X7.8082 Y37.9438
G01 X7.7355 Y37.8779
G01 X7.7036 Y37.8460
G01 X7.6377 Y37.7733
G01 X7.6091 Y37.7384
G01 X7.5506 Y37.6596
G01 X7.5255 Y37.6221
G01 X7.4751 Y37.5379
G01 X7.4538 Y37.4981
G01 X7.4118 Y37.4094
G01 X7.3946 Y37.3677
G01 X7.3615 Y37.2753
G01 X7.3484 Y37.2321
G01 X7.3246 Y37.1369
G01 X7.3157 Y37.0926
G01 X7.3013 Y36.9955
G01 X7.2969 Y36.9506
G01 X7.2930 Y36.8710
G01 X4.2832 Y33.8611
G01 X4.2676 Y33.8447
G01 X4.2281 Y33.8011
G01 X4.1994 Y33.7662
G01 X4.1643 Y33.7189
G01 X4.1392 Y33.6813
G01 X4.1090 Y33.6308
G01 X4.0877 Y33.5910
G01 X4.0625 Y33.5377
G01 X4.0452 Y33.4960
G01 X4.0254 Y33.4406
G01 X4.0123 Y33.3974
G01 X3.9980 Y33.3402
G01 X3.9892 Y33.2959
G01 X3.9805 Y33.2377
G01 X3.9761 Y33.1927
G01 X3.9732 Y33.1339
G01 X3.9726 Y33.1113
G01 X3.9726 Y9.7654
G00 Z2.0000
G00 X4.1526 Y9.6910
G01 F60.00
G01 Z-0.0900
G01 F120.00
G01 X4.1378 Y9.6775
G01 X4.1183 Y9.6581
G01 X4.0524 Y9.5854
G01 X4.0350 Y9.5642
G01 X3.9766 Y9.4853
G01 X3.9613 Y9.4625
G01 X3.9108 Y9.3783
G01 X3.8979 Y9.3541
G01 X3.8559 Y9.2654
G01 X3.8454 Y9.2400
G01 X3.8123 Y9.1476
G01 X3.8044 Y9.1213
G01 X3.7805 Y9.0261
G01 X3.7752 Y8.9991
G01 X3.7608 Y8.9021
G01 X3.7581 Y8.8747
G01 X3.7533 Y8.7767
G01 X3.7533 Y8.7492
G01 X3.7581 Y8.6512
G01 X3.7608 Y8.6239
G01 X3.7752 Y8.5268
G01 X3.7805 Y8.4998
G01 X3.8044 Y8.4047
G01 X3.8123 Y8.3784
G01 X3.8454 Y8.2860
G01 X3.8559 Y8.2606
G01 X3.8979 Y8.1719
G01 X3.9108 Y8.1476
G01 X3.9613 Y8.0635
G01 X3.9766 Y8.0406
G01 X4.0350 Y7.9618
G01 X4.0524 Y7.9405
G01 X4.1183 Y7.8678
G01 X4.1378 Y7.8484
G01 X4.2105 Y7.7825
G01 X4.2317 Y7.7651
G01 X4.3106 Y7.7066
G01 X4.3334 Y7.6913
G01 X4.4176 Y7.6409
G01 X4.4418 Y7.6279
G01 X4.5305 Y7.5860
G01 X4.5559 Y7.5755
G01 X4.6483 Y7.5424
G01 X4.6746 Y7.5344
G01 X4.7698 Y7.5106
G01 X4.7967 Y7.5052
G01 X4.8938 Y7.4908
G01 X4.9212 Y7.4881
G01 X5.0192 Y7.4833
G01 X5.0467 Y7.4833
G01 X5.1447 Y7.4881
G01 X5.1720 Y7.4908
G01 X5.2691 Y7.5052
G01 X5.2960 Y7.5106
G01 X5.3912 Y7.5344
G01 X5.4175 Y7.5424
G01 X5.5099 Y7.5755
G01 X5.5353 Y7.5860
G01 X5.6240 Y7.6279
G01 X5.6483 Y7.6409
G01 X5.7324 Y7.6913
G01 X5.7553 Y7.7066
G01 X5.8341 Y7.7651
G01 X5.8553 Y7.7825
G01 X5.9281 Y7.8484
G01 X5.9475 Y7.8678
G01 X6.0134 Y7.9405
G01 X6.0308 Y7.9618
G01 X6.0893 Y8.0406
G01 X6.1046 Y8.0635
G01 X6.1550 Y8.1476
G01 X6.1680 Y8.1719
G01 X6.2099 Y8.2606
G01 X6.2204 Y8.2860
G01 X6.2535 Y8.3784
G01 X6.2615 Y8.4047
G01 X6.2853 Y8.4998
G01 X6.2907 Y8.5268
G01 X6.3051 Y8.6239
G01 X6.3078 Y8.6512
G01 X6.3126 Y8.7492
G01 X6.3126 Y8.7767
G01 X6.3078 Y8.8747
G01 X6.3051 Y8.9021
G01 X6.2907 Y8.9991
G01 X6.2853 Y9.0261
G01 X6.2615 Y9.1213
G01 X6.2535 Y9.1476
G01 X6.2204 Y9.2400
G01 X6.2099 Y9.2654
G01 X6.1680 Y9.3541
G01 X6.1550 Y9.3783
G01 X6.1046 Y9.4625
G01 X6.0893 Y9.4853
G01 X6.0308 Y9.5642
G01 X6.0134 Y9.5854
G01 X5.9475 Y9.6581
G01 X5.9281 Y9.6775
G01 X5.9132 Y9.6910
G01 X5.9132 Y32.7467
G01 X8.7178 Y35.5513
G01 X8.7378 Y35.5503
G01 X8.7653 Y35.5503
G01 X8.8633 Y35.5552
G01 X8.8907 Y35.5578
G01 X8.9877 Y35.5722
G01 X9.0147 Y35.5776
G01 X9.1099 Y35.6015
G01 X9.1362 Y35.6094
G01 X9.2286 Y35.6425
G01 X9.2539 Y35.6530
G01 X9.3427 Y35.6950
G01 X9.3669 Y35.7079
G01 X9.4511 Y35.7584
G01 X9.4739 Y35.7736
G01 X9.5527 Y35.8321
G01 X9.5740 Y35.8495
G01 X9.6467 Y35.9154
G01 X9.6661 Y35.9349
G01 X9.7320 Y36.0076
G01 X9.7495 Y36.0288
G01 X9.8079 Y36.1076
G01 X9.8232 Y36.1305
G01 X9.8736 Y36.2147
G01 X9.8866 Y36.2389
G01 X9.9285 Y36.3276
G01 X9.9391 Y36.3530
G01 X9.9721 Y36.4454
G01 X9.9801 Y36.4717
G01 X10.0039 Y36.5669
G01 X10.0093 Y36.5938
G01 X10.0237 Y36.6909
G01 X10.0264 Y36.7182
G01 X10.0312 Y36.8163
G01 X10.0312 Y36.8437
G01 X10.0302 Y36.8638
G01 X19.0222 Y45.8557
G01 X30.7034 Y45.8557
G01 X37.6807 Y38.8784
G01 X37.6807 Y35.3975
G01 X37.6810 Y35.3837
G01 X37.6839 Y35.3249
G01 X37.6866 Y35.2975
G01 X37.6953 Y35.2393
G01 X37.7006 Y35.2123
G01 X37.7149 Y35.1552
G01 X37.7229 Y35.1289
G01 X37.7428 Y35.0734
G01 X37.7533 Y35.0480
G01 X37.7785 Y34.9948
G01 X37.7914 Y34.9705
G01 X37.8217 Y34.9200
G01 X37.8370 Y34.8972
G01 X37.8721 Y34.8498
G01 X37.8895 Y34.8286
G01 X37.9291 Y34.7849
G01 X37.9385 Y34.7750
G01 X40.2033 Y32.5102
G01 X40.2023 Y32.4902
G01 X40.2023 Y32.4627
G01 X40.2072 Y32.3647
G01 X40.2098 Y32.3373
G01 X40.2242 Y32.2403
G01 X40.2296 Y32.2133
G01 X40.2535 Y32.1181
G01 X40.2614 Y32.0918
G01 X40.2945 Y31.9994
G01 X40.3050 Y31.9740
G01 X40.3470 Y31.8853
G01 X40.3599 Y31.8611
G01 X40.4104 Y31.7769
G01 X40.4256 Y31.7541
G01 X40.4841 Y31.6753
G01 X40.5015 Y31.6540
G01 X40.5674 Y31.5813
G01 X40.5869 Y31.5619
G01 X40.6596 Y31.4960
G01 X40.6808 Y31.4785
G01 X40.7596 Y31.4201
G01 X40.7825 Y31.4048
G01 X40.8667 Y31.3544
G01 X40.8909 Y31.3414
G01 X40.9796 Y31.2994
G01 X41.0050 Y31.2889
G01 X41.0974 Y31.2559
G01 X41.1237 Y31.2479
G01 X41.2189 Y31.2240
G01 X41.2458 Y31.2187
G01 X41.3429 Y31.2043
G01 X41.3702 Y31.2016
G01 X41.4683 Y31.1968
G01 X41.4957 Y31.1968
G01 X41.5938 Y31.2016
G01 X41.6211 Y31.2043
G01 X41.7182 Y31.2187
G01 X41.7451 Y31.2240
G01 X41.8403 Y31.2479
G01 X41.8666 Y31.2559
G01 X41.9590 Y31.2889
G01 X41.9844 Y31.2994
G01 X42.0731 Y31.3414
G01 X42.0973 Y31.3544
G01 X42.1815 Y31.4048
G01 X42.2044 Y31.4201
G01 X42.2832 Y31.4785
G01 X42.3044 Y31.4960
G01 X42.3771 Y31.5619
G01 X42.3966 Y31.5813
G01 X42.4625 Y31.6540
G01 X42.4799 Y31.6753
G01 X42.5384 Y31.7541
G01 X42.5536 Y31.7769
G01 X42.6041 Y31.8611
G01 X42.6170 Y31.8853
G01 X42.6590 Y31.9740
G01 X42.6695 Y31.9994
G01 X42.7026 Y32.0918
G01 X42.7105 Y32.1181
G01 X42.7344 Y32.2133
G01 X42.7398 Y32.2403
G01 X42.7542 Y32.3373
G01 X42.7568 Y32.3647
G01 X42.7617 Y32.4627
G01 X42.7617 Y32.4902
G01 X42.7568 Y32.5882
G01 X42.7542 Y32.6155
G01 X42.7398 Y32.7126
G01 X42.7344 Y32.7396
G01 X42.7105 Y32.8348
G01 X42.7026 Y32.8611
G01 X42.6695 Y32.9535
G01 X42.6590 Y32.9788
G01 X42.6170 Y33.0676
G01 X42.6041 Y33.0918
G01 X42.5536 Y33.1760
G01 X42.5384 Y33.1988
G01 X42.4799 Y33.2776
G01 X42.4625 Y33.2989
G01 X42.3966 Y33.3716
G01 X42.3771 Y33.3910
G01 X42.3044 Y33.4569
G01 X42.2832 Y33.4743
G01 X42.2044 Y33.5328
G01 X42.1815 Y33.5481
G01 X42.0973 Y33.5985
G01 X42.0731 Y33.6115
G01 X41.9844 Y33.6534
G01 X41.9590 Y33.6640
G01 X41.8666 Y33.6970
G01 X41.8403 Y33.7050
G01 X41.7451 Y33.7288
G01 X41.7182 Y33.7342
G01 X41.6211 Y33.7486
G01 X41.5938 Y33.7513
G01 X41.4957 Y33.7561
G01 X41.4683 Y33.7561
G01 X41.4483 Y33.7551
G01 X39.4413 Y35.7621
G01 X39.4413 Y39.2430
G01 X39.4410 Y39.2567
G01 X39.4381 Y39.3156
G01 X39.4354 Y39.3429
G01 X39.4267 Y39.4012
G01 X39.4214 Y39.4281
G01 X39.4071 Y39.4853
G01 X39.3991 Y39.5116
G01 X39.3792 Y39.5671
G01 X39.3687 Y39.5924
G01 X39.3435 Y39.6457
G01 X39.3306 Y39.6699
G01 X39.3003 Y39.7205
G01 X39.2850 Y39.7433
G01 X39.2499 Y39.7906
G01 X39.2325 Y39.8119
G01 X39.1929 Y39.8555
G01 X39.1835 Y39.8655
G01 X31.6905 Y47.3585
G01 X31.6805 Y47.3679
G01 X31.6369 Y47.4075
G01 X31.6156 Y47.4249
G01 X31.5683 Y47.4600
G01 X31.5455 Y47.4753
G01 X31.4949 Y47.5056
G01 X31.4707 Y47.5185
G01 X31.4174 Y47.5437
G01 X31.3921 Y47.5542
G01 X31.3366 Y47.5741
G01 X31.3103 Y47.5821
G01 X31.2531 Y47.5964
G01 X31.2262 Y47.6017
G01 X31.1679 Y47.6104
G01 X31.1406 Y47.6131
G01 X31.0817 Y47.6160
G01 X31.0680 Y47.6163
G01 X18.6576 Y47.6163
G01 X18.6438 Y47.6160
G01 X18.5850 Y47.6131
G01 X18.5577 Y47.6104
G01 X18.4994 Y47.6017
G01 X18.4724 Y47.5964
G01 X18.4153 Y47.5821
G01 X18.3890 Y47.5741
G01 X18.3335 Y47.5542
G01 X18.3081 Y47.5437
G01 X18.2549 Y47.5185
G01 X18.2307 Y47.5056
G01 X18.1801 Y47.4753
G01 X18.1573 Y47.4600
G01 X18.1100 Y47.4249
G01 X18.0887 Y47.4075
G01 X18.0451 Y47.3679
G01 X18.0351 Y47.3585
G01 X8.7853 Y38.1087
G01 X8.7653 Y38.1097
G01 X8.7378 Y38.1097
G01 X8.6398 Y38.1048
G01 X8.6124 Y38.1022
G01 X8.5154 Y38.0878
G01 X8.4884 Y38.0824
G01 X8.3932 Y38.0585
G01 X8.3669 Y38.0506
G01 X8.2745 Y38.0175
G01 X8.2492 Y38.0070
G01 X8.1604 Y37.9650
G01 X8.1362 Y37.9521
G01 X8.0520 Y37.9016
G01 X8.0292 Y37.8864
G01 X7.9504 Y37.8279
G01 X7.9291 Y37.8105
G01 X7.8564 Y37.7446
G01 X7.8370 Y37.7251
G01 X7.7711 Y37.6524
G01 X7.7536 Y37.6312
G01 X7.6952 Y37.5524
G01 X7.6799 Y37.5295
G01 X7.6295 Y37.4453
G01 X7.6165 Y37.4211
G01 X7.5746 Y37.3324
G01 X7.5640 Y37.3070
G01 X7.5310 Y37.2146
G01 X7.5230 Y37.1883
G01 X7.4992 Y37.0931
G01 X7.4938 Y37.0662
G01 X7.4794 Y36.9691
G01 X7.4767 Y36.9418
G01 X7.4719 Y36.8437
G01 X7.4719 Y36.8163
G01 X7.4729 Y36.7963
G01 X4.4105 Y33.7338
G01 X4.4010 Y33.7238
G01 X4.3614 Y33.6802
G01 X4.3440 Y33.6589
G01 X4.3089 Y33.6116
G01 X4.2936 Y33.5888
G01 X4.2634 Y33.5383
G01 X4.2504 Y33.5140
G01 X4.2252 Y33.4608
G01 X4.2147 Y33.4354
G01 X4.1949 Y33.3799
G01 X4.1869 Y33.3536
G01 X4.1726 Y33.2965
G01 X4.1672 Y33.2695
G01 X4.1586 Y33.2113
G01 X4.1559 Y33.1839
G01 X4.1530 Y33.1251
G01 X4.1526 Y33.1113
G01 X4.1526 Y9.6910
G00 Z2.0000
G00 X4.3326 Y9.6111
G01 F60.00
G01 Z-0.0900
G01 F120.00
G01 X4.2587 Y9.5442
G01 X4.2517 Y9.5372
G01 X4.1858 Y9.4645
G01 X4.1796 Y9.4569
G01 X4.1211 Y9.3781
G01 X4.1157 Y9.3700
G01 X4.0652 Y9.2858
G01 X4.0606 Y9.2771
G01 X4.0186 Y9.1884
G01 X4.0149 Y9.1793
G01 X3.9818 Y9.0869
G01 X3.9790 Y9.0776
G01 X3.9551 Y8.9824
G01 X3.9532 Y8.9727
G01 X3.9388 Y8.8757
G01 X3.9379 Y8.8659
G01 X3.9330 Y8.7679
G01 X3.9330 Y8.7581
G01 X3.9379 Y8.6600
G01 X3.9388 Y8.6503
G01 X3.9532 Y8.5532
G01 X3.9551 Y8.5436
G01 X3.9790 Y8.4484
G01 X3.9818 Y8.4390
G01 X4.0149 Y8.3466
G01 X4.0186 Y8.3375
G01 X4.0606 Y8.2488
G01 X4.0652 Y8.2402
G01 X4.1157 Y8.1560
G01 X4.1211 Y8.1478
G01 X4.1796 Y8.0690
G01 X4.1858 Y8.0614
G01 X4.2517 Y7.9887
G01 X4.2587 Y7.9818
G01 X4.3314 Y7.9159
G01 X4.3390 Y7.9096
G01 X4.4178 Y7.8512
G01 X4.4259 Y7.8457
G01 X4.5101 Y7.7953
G01 X4.5188 Y7.7906
G01 X4.6075 Y7.7487
G01 X4.6165 Y7.7449
G01 X4.7089 Y7.7119
G01 X4.7183 Y7.7090
G01 X4.8135 Y7.6852
G01 X4.8232 Y7.6833
G01 X4.9202 Y7.6689
G01 X4.9300 Y7.6679
G01 X5.0280 Y7.6631
G01 X5.0378 Y7.6631
G01 X5.1358 Y7.6679
G01 X5.1456 Y7.6689
G01 X5.2427 Y7.6833
G01 X5.2523 Y7.6852
G01 X5.3475 Y7.7090
G01 X5.3569 Y7.7119
G01 X5.4493 Y7.7449
G01 X5.4584 Y7.7487
G01 X5.5471 Y7.7906
G01 X5.5557 Y7.7953
G01 X5.6399 Y7.8457
G01 X5.6481 Y7.8512
G01 X5.7269 Y7.9096
G01 X5.7345 Y7.9159
G01 X5.8072 Y7.9818
G01 X5.8141 Y7.9887
G01 X5.8800 Y8.0614
G01 X5.8863 Y8.0690
G01 X5.9447 Y8.1478
G01 X5.9502 Y8.1560
G01 X6.0006 Y8.2402
G01 X6.0052 Y8.2488
G01 X6.0472 Y8.3375
G01 X6.0510 Y8.3466
G01 X6.0840 Y8.4390
G01 X6.0869 Y8.4484
G01 X6.1107 Y8.5436
G01 X6.1126 Y8.5532
G01 X6.1270 Y8.6503
G01 X6.1280 Y8.6600
G01 X6.1328 Y8.7581
G01 X6.1328 Y8.7679
G01 X6.1280 Y8.8659
G01 X6.1270 Y8.8757
G01 X6.1126 Y8.9727
G01 X6.1107 Y8.9824
G01 X6.0869 Y9.0776
G01 X6.0840 Y9.0869
G01 X6.0510 Y9.1793
G01 X6.0472 Y9.1884
G01 X6.0052 Y9.2771
G01 X6.0006 Y9.2858
G01 X5.9502 Y9.3700
G01 X5.9447 Y9.3781
G01 X5.8863 Y9.4569
G01 X5.8800 Y9.4645
G01 X5.8141 Y9.5372
G01 X5.8072 Y9.5442
G01 X5.7332 Y9.6111
G01 X5.7332 Y32.8213
G01 X8.6470 Y35.7351
G01 X8.7466 Y35.7301
G01 X8.7565 Y35.7301
G01 X8.8545 Y35.7349
G01 X8.8642 Y35.7359
G01 X8.9613 Y35.7503
G01 X8.9709 Y35.7522
G01 X9.0661 Y35.7761
G01 X9.0755 Y35.7789
G01 X9.1679 Y35.8120
G01 X9.1770 Y35.8157
G01 X9.2657 Y35.8577
G01 X9.2744 Y35.8623
G01 X9.3585 Y35.9128
G01 X9.3667 Y35.9182
G01 X9.4455 Y35.9767
G01 X9.4531 Y35.9829
G01 X9.5258 Y36.0488
G01 X9.5328 Y36.0557
G01 X9.5987 Y36.1285
G01 X9.6049 Y36.1360
G01 X9.6633 Y36.2149
G01 X9.6688 Y36.2230
G01 X9.7192 Y36.3072
G01 X9.7239 Y36.3158
G01 X9.7658 Y36.4046
G01 X9.7696 Y36.4136
G01 X9.8026 Y36.5060
G01 X9.8055 Y36.5154
G01 X9.8293 Y36.6106
G01 X9.8313 Y36.6202
G01 X9.8457 Y36.7173
G01 X9.8466 Y36.7271
G01 X9.8514 Y36.8251
G01 X9.8514 Y36.8349
G01 X9.8465 Y36.9345
G01 X18.9477 Y46.0357
G01 X30.7779 Y46.0357
G01 X37.8607 Y38.9529
G01 X37.8608 Y35.3926
G01 X37.8637 Y35.3337
G01 X37.8647 Y35.3239
G01 X37.8733 Y35.2657
G01 X37.8752 Y35.2560
G01 X37.8895 Y35.1989
G01 X37.8924 Y35.1895
G01 X37.9122 Y35.1340
G01 X37.9160 Y35.1250
G01 X37.9412 Y35.0717
G01 X37.9458 Y35.0631
G01 X37.9761 Y35.0125
G01 X37.9815 Y35.0044
G01 X38.0166 Y34.9571
G01 X38.0229 Y34.9495
G01 X38.0658 Y34.9023
G01 X40.3871 Y32.5810
G01 X40.3821 Y32.4813
G01 X40.3821 Y32.4715
G01 X40.3869 Y32.3735
G01 X40.3879 Y32.3637
G01 X40.4023 Y32.2667
G01 X40.4042 Y32.2571
G01 X40.4281 Y32.1619
G01 X40.4309 Y32.1525
G01 X40.4640 Y32.0601
G01 X40.4677 Y32.0510
G01 X40.5097 Y31.9623
G01 X40.5143 Y31.9536
G01 X40.5648 Y31.8695
G01 X40.5702 Y31.8613
G01 X40.6287 Y31.7825
G01 X40.6349 Y31.7749
G01 X40.7008 Y31.7022
G01 X40.7077 Y31.6952
G01 X40.7805 Y31.6293
G01 X40.7880 Y31.6231
G01 X40.8669 Y31.5646
G01 X40.8750 Y31.5592
G01 X40.9592 Y31.5087
G01 X40.9678 Y31.5041
G01 X41.0566 Y31.4622
G01 X41.0656 Y31.4584
G01 X41.1580 Y31.4253
G01 X41.1674 Y31.4225
G01 X41.2626 Y31.3987
G01 X41.2722 Y31.3967
G01 X41.3693 Y31.3823
G01 X41.3791 Y31.3814
G01 X41.4771 Y31.3766
G01 X41.4869 Y31.3766
G01 X41.5849 Y31.3814
G01 X41.5947 Y31.3823
G01 X41.6918 Y31.3967
G01 X41.7014 Y31.3987
G01 X41.7966 Y31.4225
G01 X41.8060 Y31.4253
G01 X41.8984 Y31.4584
G01 X41.9074 Y31.4622
G01 X41.9962 Y31.5041
G01 X42.0048 Y31.5087
G01 X42.0890 Y31.5592
G01 X42.0971 Y31.5646
G01 X42.1760 Y31.6231
G01 X42.1835 Y31.6293
G01 X42.2563 Y31.6952
G01 X42.2632 Y31.7022
G01 X42.3291 Y31.7749
G01 X42.3353 Y31.7825
G01 X42.3938 Y31.8613
G01 X42.3992 Y31.8695
G01 X42.4497 Y31.9536
G01 X42.4543 Y31.9623
G01 X42.4963 Y32.0510
G01 X42.5000 Y32.0601
G01 X42.5331 Y32.1525
G01 X42.5359 Y32.1619
G01 X42.5598 Y32.2571
G01 X42.5617 Y32.2667
G01 X42.5761 Y32.3637
G01 X42.5771 Y32.3735
G01 X42.5819 Y32.4715
G01 X42.5819 Y32.4813
G01 X42.5771 Y32.5794
G01 X42.5761 Y32.5891
G01 X42.5617 Y32.6862
G01 X42.5598 Y32.6958
G01 X42.5359 Y32.7910
G01 X42.5331 Y32.8004
G01 X42.5000 Y32.8928
G01 X42.4963 Y32.9019
G01 X42.4543 Y32.9906
G01 X42.4497 Y32.9992
G01 X42.3992 Y33.0834
G01 X42.3938 Y33.0916
G01 X42.3353 Y33.1704
G01 X42.3291 Y33.1780
G01 X42.2632 Y33.2507
G01 X42.2563 Y33.2576
G01 X42.1835 Y33.3235
G01 X42.1760 Y33.3298
G01 X42.0971 Y33.3882
G01 X42.0890 Y33.3937
G01 X42.0048 Y33.4441
G01 X41.9962 Y33.4488
G01 X41.9074 Y33.4907
G01 X41.8984 Y33.4945
G01 X41.8060 Y33.5275
G01 X41.7966 Y33.5304
G01 X41.7014 Y33.5542
G01 X41.6918 Y33.5561
G01 X41.5947 Y33.5705
G01 X41.5849 Y33.5715
G01 X41.4869 Y33.5763
G01 X41.4771 Y33.5763
G01 X41.3775 Y33.5713
G01 X39.2613 Y35.6875
G01 X39.2612 Y39.2479
G01 X39.2583 Y39.3067
G01 X39.2573 Y39.3165
G01 X39.2487 Y39.3748
G01 X39.2468 Y39.3844
G01 X39.2325 Y39.4416
G01 X39.2296 Y39.4509
G01 X39.2098 Y39.5064
G01 X39.2060 Y39.5155
G01 X39.1808 Y39.5687
G01 X39.1762 Y39.5774
G01 X39.1459 Y39.6279
G01 X39.1405 Y39.6361
G01 X39.1054 Y39.6834
G01 X39.0991 Y39.6910
G01 X39.0562 Y39.7382
G01 X31.5632 Y47.2312
G01 X31.5160 Y47.2741
G01 X31.5084 Y47.2804
G01 X31.4611 Y47.3155
G01 X31.4529 Y47.3209
G01 X31.4024 Y47.3512
G01 X31.3937 Y47.3558
G01 X31.3405 Y47.3810
G01 X31.3314 Y47.3848
G01 X31.2759 Y47.4046
G01 X31.2666 Y47.4075
G01 X31.2094 Y47.4218
G01 X31.1998 Y47.4237
G01 X31.1415 Y47.4323
G01 X31.1317 Y47.4333
G01 X31.0680 Y47.4363
G01 X18.6576 Y47.4363
G01 X18.5938 Y47.4333
G01 X18.5841 Y47.4323
G01 X18.5258 Y47.4237
G01 X18.5162 Y47.4218
G01 X18.4590 Y47.4075
G01 X18.4496 Y47.4046
G01 X18.3942 Y47.3848
G01 X18.3851 Y47.3810
G01 X18.3318 Y47.3558
G01 X18.3232 Y47.3512
G01 X18.2727 Y47.3209
G01 X18.2645 Y47.3155
G01 X18.2172 Y47.2804
G01 X18.2096 Y47.2741
G01 X18.1624 Y47.2312
G01 X8.8561 Y37.9249
G01 X8.7565 Y37.9299
G01 X8.7466 Y37.9299
G01 X8.6486 Y37.9251
G01 X8.6389 Y37.9241
G01 X8.5418 Y37.9097
G01 X8.5322 Y37.9078
G01 X8.4370 Y37.8839
G01 X8.4276 Y37.8811
G01 X8.3352 Y37.8480
G01 X8.3261 Y37.8443
G01 X8.2374 Y37.8023
G01 X8.2287 Y37.7977
G01 X8.1446 Y37.7472
G01 X8.1364 Y37.7418
G01 X8.0576 Y37.6833
G01 X8.0500 Y37.6771
G01 X7.9773 Y37.6112
G01 X7.9703 Y37.6043
G01 X7.9044 Y37.5315
G01 X7.8982 Y37.5240
G01 X7.8398 Y37.4451
G01 X7.8343 Y37.4370
G01 X7.7839 Y37.3528
G01 X7.7792 Y37.3442
G01 X7.7373 Y37.2554
G01 X7.7335 Y37.2464
G01 X7.7005 Y37.1540
G01 X7.6976 Y37.1446
G01 X7.6738 Y37.0494
G01 X7.6718 Y37.0398
G01 X7.6574 Y36.9427
G01 X7.6565 Y36.9329
G01 X7.6517 Y36.8349
G01 X7.6517 Y36.8251
G01 X7.6566 Y36.7255
G01 X4.5377 Y33.6065
G01 X4.4948 Y33.5593
G01 X4.4886 Y33.5517
G01 X4.4535 Y33.5044
G01 X4.4480 Y33.4962
G01 X4.4177 Y33.4457
G01 X4.4131 Y33.4371
G01 X4.3879 Y33.3838
G01 X4.3842 Y33.3747
G01 X4.3643 Y33.3193
G01 X4.3615 Y33.3099
G01 X4.3472 Y33.2527
G01 X4.3453 Y33.2431
G01 X4.3366 Y33.1848
G01 X4.3357 Y33.1751
G01 X4.3326 Y33.1113
G01 X4.3326 Y9.6111
G00 Z2.0000
G00 X8.6926 Y9.8997
G01 F60.00
G01 Z-0.0900
G01 F120.00
G01 X8.6813 Y9.8858
G01 X8.6228 Y9.8070
G01 X8.5781 Y9.7401
G01 X8.5277 Y9.6559
G01 X8.4897 Y9.5850
G01 X8.4478 Y9.4962
G01 X8.4170 Y9.4219
G01 X8.3839 Y9.3295
G01 X8.3606 Y9.2525
G01 X8.3367 Y9.1573
G01 X8.3210 Y9.0784
G01 X8.3066 Y8.9813
G01 X8.2987 Y8.9012
G01 X8.2939 Y8.8032
G01 X8.2939 Y8.7227
G01 X8.2987 Y8.6247
G01 X8.3066 Y8.5446
G01 X8.3210 Y8.4476
G01 X8.3367 Y8.3686
G01 X8.3606 Y8.2734
G01 X8.3839 Y8.1964
G01 X8.4170 Y8.1040
G01 X8.4478 Y8.0297
G01 X8.4897 Y7.9410
G01 X8.5277 Y7.8700
G01 X8.5781 Y7.7858
G01 X8.6228 Y7.7189
G01 X8.6813 Y7.6401
G01 X8.7323 Y7.5779
G01 X8.7982 Y7.5052
G01 X8.8551 Y7.4483
G01 X8.9278 Y7.3824
G01 X8.9901 Y7.3313
G01 X9.0689 Y7.2729
G01 X9.1358 Y7.2282
G01 X9.2200 Y7.1777
G01 X9.2909 Y7.1398
G01 X9.3796 Y7.0978
G01 X9.4540 Y7.0670
G01 X9.5464 Y7.0340
G01 X9.6234 Y7.0106
G01 X9.7186 Y6.9868
G01 X9.7975 Y6.9711
G01 X9.8946 Y6.9567
G01 X9.9747 Y6.9488
G01 X10.0727 Y6.9440
G01 X10.1532 Y6.9440
G01 X10.2512 Y6.9488
G01 X10.3313 Y6.9567
G01 X10.4283 Y6.9711
G01 X10.5073 Y6.9868
G01 X10.6024 Y7.0106
G01 X10.6795 Y7.0340
G01 X10.7719 Y7.0670
G01 X10.8462 Y7.0978
G01 X10.9349 Y7.1398
G01 X11.0059 Y7.1777
G01 X11.0901 Y7.2282
G01 X11.1570 Y7.2729
G01 X11.2358 Y7.3313
G01 X11.2980 Y7.3824
G01 X11.3707 Y7.4483
G01 X11.4276 Y7.5052
G01 X11.4935 Y7.5779
G01 X11.5446 Y7.6401
G01 X11.6030 Y7.7189
G01 X11.6477 Y7.7858
G01 X11.6982 Y7.8700
G01 X11.7361 Y7.9410
G01 X11.7781 Y8.0297
G01 X11.8089 Y8.1040
G01 X11.8419 Y8.1964
G01 X11.8653 Y8.2734
G01 X11.8891 Y8.3686
G01 X11.9048 Y8.4476
G01 X11.9192 Y8.5446
G01 X11.9271 Y8.6247
G01 X11.9319 Y8.7227
G01 X11.9319 Y8.8032
G01 X11.9271 Y8.9012
G01 X11.9192 Y8.9813
G01 X11.9048 Y9.0784
G01 X11.8891 Y9.1573
G01 X11.8653 Y9.2525
G01 X11.8419 Y9.3295
G01 X11.8089 Y9.4219
G01 X11.7781 Y9.4962
G01 X11.7361 Y9.5850
G01 X11.6982 Y9.6559
G01 X11.6477 Y9.7401
G01 X11.6030 Y9.8070
G01 X11.5446 Y9.8858
G01 X11.5332 Y9.8996
G01 X11.5332 Y32.5942
G01 X13.9610 Y35.0219
G01 X13.9788 Y35.0237
G01 X14.0758 Y35.0381
G01 X14.1548 Y35.0538
G01 X14.2500 Y35.0776
G01 X14.3270 Y35.1010
G01 X14.4194 Y35.1341
G01 X14.4937 Y35.1648
G01 X14.5824 Y35.2068
G01 X14.6534 Y35.2447
G01 X14.7376 Y35.2952
G01 X14.8045 Y35.3399
G01 X14.8833 Y35.3984
G01 X14.9455 Y35.4494
G01 X15.0182 Y35.5153
G01 X15.0751 Y35.5722
G01 X15.1410 Y35.6449
G01 X15.1921 Y35.7071
G01 X15.2505 Y35.7860
G01 X15.2952 Y35.8529
G01 X15.3457 Y35.9370
G01 X15.3836 Y36.0080
G01 X15.4256 Y36.0967
G01 X15.4564 Y36.1711
G01 X15.4894 Y36.2635
G01 X15.5128 Y36.3405
G01 X15.5367 Y36.4357
G01 X15.5523 Y36.5146
G01 X15.5667 Y36.6117
G01 X15.5685 Y36.6295
G01 X20.1907 Y41.2517
G01 X27.5587 Y41.2517
G01 X28.6317 Y40.1787
G01 X28.6317 Y34.1630
G01 X28.6327 Y34.1228
G01 X28.6356 Y34.0639
G01 X28.6435 Y33.9838
G01 X28.6521 Y33.9256
G01 X28.6678 Y33.8466
G01 X28.6821 Y33.7895
G01 X28.7055 Y33.7125
G01 X28.7253 Y33.6570
G01 X28.7561 Y33.5827
G01 X28.7813 Y33.5294
G01 X28.8192 Y33.4585
G01 X28.8495 Y33.4079
G01 X28.8942 Y33.3410
G01 X28.9293 Y33.2937
G01 X28.9804 Y33.2315
G01 X29.0199 Y33.1878
G01 X29.0477 Y33.1587
G01 X35.7431 Y26.4632
G01 X35.7723 Y26.4355
G01 X35.8159 Y26.3959
G01 X35.8781 Y26.3449
G01 X35.9254 Y26.3098
G01 X35.9923 Y26.2651
G01 X36.0429 Y26.2348
G01 X36.1138 Y26.1968
G01 X36.1671 Y26.1717
G01 X36.2414 Y26.1409
G01 X36.2969 Y26.1210
G01 X36.3739 Y26.0977
G01 X36.4311 Y26.0833
G01 X36.5100 Y26.0676
G01 X36.5683 Y26.0590
G01 X36.6483 Y26.0511
G01 X36.7072 Y26.0482
G01 X36.7474 Y26.0472
G01 X40.3453 Y26.0472
G01 X40.3591 Y26.0359
G01 X40.4380 Y25.9775
G01 X40.5049 Y25.9327
G01 X40.5890 Y25.8823
G01 X40.6600 Y25.8444
G01 X40.7487 Y25.8024
G01 X40.8231 Y25.7716
G01 X40.9155 Y25.7385
G01 X40.9925 Y25.7152
G01 X41.0877 Y25.6913
G01 X41.1666 Y25.6756
G01 X41.2637 Y25.6612
G01 X41.3437 Y25.6534
G01 X41.4418 Y25.6485
G01 X41.5222 Y25.6485
G01 X41.6203 Y25.6534
G01 X41.7003 Y25.6612
G01 X41.7974 Y25.6756
G01 X41.8763 Y25.6913
G01 X41.9715 Y25.7152
G01 X42.0485 Y25.7385
G01 X42.1409 Y25.7716
G01 X42.2153 Y25.8024
G01 X42.3040 Y25.8444
G01 X42.3750 Y25.8823
G01 X42.4591 Y25.9327
G01 X42.5260 Y25.9775
G01 X42.6049 Y26.0359
G01 X42.6671 Y26.0870
G01 X42.7398 Y26.1529
G01 X42.7967 Y26.2098
G01 X42.8626 Y26.2825
G01 X42.9136 Y26.3447
G01 X42.9721 Y26.4235
G01 X43.0168 Y26.4904
G01 X43.0673 Y26.5746
G01 X43.1052 Y26.6456
G01 X43.1472 Y26.7343
G01 X43.1779 Y26.8086
G01 X43.2110 Y26.9010
G01 X43.2344 Y26.9780
G01 X43.2582 Y27.0732
G01 X43.2739 Y27.1521
G01 X43.2883 Y27.2492
G01 X43.2962 Y27.3293
G01 X43.3010 Y27.4273
G01 X43.3010 Y27.5078
G01 X43.2962 Y27.6058
G01 X43.2883 Y27.6859
G01 X43.2739 Y27.7830
G01 X43.2582 Y27.8619
G01 X43.2344 Y27.9571
G01 X43.2110 Y28.0341
G01 X43.1779 Y28.1265
G01 X43.1472 Y28.2008
G01 X43.1052 Y28.2895
G01 X43.0673 Y28.3605
G01 X43.0168 Y28.4447
G01 X42.9721 Y28.5116
G01 X42.9136 Y28.5904
G01 X42.8626 Y28.6526
G01 X42.7967 Y28.7253
G01 X42.7398 Y28.7822
G01 X42.6671 Y28.8481
G01 X42.6049 Y28.8992
G01 X42.5260 Y28.9576
G01 X42.4591 Y29.0024
G01 X42.3750 Y29.0528
G01 X42.3040 Y29.0907
G01 X42.2153 Y29.1327
G01 X42.1409 Y29.1635
G01 X42.0485 Y29.1966
G01 X41.9715 Y29.2199
G01 X41.8763 Y29.2438
G01 X41.7974 Y29.2595
G01 X41.7003 Y29.2739
G01 X41.6203 Y29.2817
G01 X41.5222 Y29.2866
G01 X41.4418 Y29.2866
G01 X41.3437 Y29.2817
G01 X41.2637 Y29.2739
G01 X41.1666 Y29.2595
G01 X41.0877 Y29.2438
G01 X40.9925 Y29.2199
G01 X40.9155 Y29.1966
G01 X40.8231 Y29.1635
G01 X40.7487 Y29.1327
G01 X40.6600 Y29.0907
G01 X40.5890 Y29.0528
G01 X40.5049 Y29.0024
G01 X40.4380 Y28.9576
G01 X40.3591 Y28.8992
G01 X40.3453 Y28.8878
G01 X37.3357 Y28.8878
G01 X31.4723 Y34.7513
G01 X31.4723 Y40.7670
G01 X31.4713 Y40.8072
G01 X31.4684 Y40.8661
G01 X31.4605 Y40.9462
G01 X31.4519 Y41.0044
G01 X31.4362 Y41.0834
G01 X31.4219 Y41.1405
G01 X31.3985 Y41.2175
G01 X31.3787 Y41.2730
G01 X31.3479 Y41.3473
G01 X31.3227 Y41.4006
G01 X31.2848 Y41.4715
G01 X31.2545 Y41.5221
G01 X31.2098 Y41.5890
G01 X31.1747 Y41.6363
G01 X31.1236 Y41.6985
G01 X31.0841 Y41.7422
G01 X31.0563 Y41.7713
G01 X29.1513 Y43.6763
G01 X29.1222 Y43.7041
G01 X29.0785 Y43.7436
G01 X29.0163 Y43.7947
G01 X28.9690 Y43.8298
G01 X28.9021 Y43.8745
G01 X28.8515 Y43.9048
G01 X28.7806 Y43.9427
G01 X28.7273 Y43.9679
G01 X28.6530 Y43.9987
G01 X28.5975 Y44.0185
G01 X28.5205 Y44.0419
G01 X28.4634 Y44.0562
G01 X28.3844 Y44.0719
G01 X28.3262 Y44.0805
G01 X28.2461 Y44.0884
G01 X28.1872 Y44.0913
G01 X28.1470 Y44.0923
G01 X19.6024 Y44.0923
G01 X19.5622 Y44.0913
G01 X19.5033 Y44.0884
G01 X19.4233 Y44.0805
G01 X19.3650 Y44.0719
G01 X19.2861 Y44.0562
G01 X19.2289 Y44.0419
G01 X19.1519 Y44.0185
G01 X19.0964 Y43.9987
G01 X19.0221 Y43.9679
G01 X18.9688 Y43.9427
G01 X18.8979 Y43.9048
G01 X18.8473 Y43.8745
G01 X18.7804 Y43.8298
G01 X18.7331 Y43.7947
G01 X18.6709 Y43.7436
G01 X18.6273 Y43.7041
G01 X18.5981 Y43.6763
G01 X13.5599 Y38.6381
G01 X13.5421 Y38.6363
G01 X13.4450 Y38.6219
G01 X13.3661 Y38.6062
G01 X13.2709 Y38.5824
G01 X13.1939 Y38.5590
G01 X13.1015 Y38.5259
G01 X13.0272 Y38.4952
G01 X12.9384 Y38.4532
G01 X12.8675 Y38.4153
G01 X12.7833 Y38.3648
G01 X12.7164 Y38.3201
G01 X12.6376 Y38.2616
G01 X12.5754 Y38.2106
G01 X12.5027 Y38.1447
G01 X12.4458 Y38.0878
G01 X12.3798 Y38.0151
G01 X12.3288 Y37.9529
G01 X12.2703 Y37.8740
G01 X12.2256 Y37.8071
G01 X12.1752 Y37.7230
G01 X12.1372 Y37.6520
G01 X12.0953 Y37.5633
G01 X12.0645 Y37.4889
G01 X12.0314 Y37.3965
G01 X12.0081 Y37.3195
G01 X11.9842 Y37.2243
G01 X11.9685 Y37.1454
G01 X11.9541 Y37.0483
G01 X11.9524 Y37.0306
G01 X9.1086 Y34.1867
G01 X9.0809 Y34.1576
G01 X9.0413 Y34.1139
G01 X8.9903 Y34.0517
G01 X8.9552 Y34.0044
G01 X8.9105 Y33.9375
G01 X8.8802 Y33.8870
G01 X8.8422 Y33.8160
G01 X8.8171 Y33.7628
G01 X8.7863 Y33.6884
G01 X8.7664 Y33.6330
G01 X8.7431 Y33.5559
G01 X8.7287 Y33.4988
G01 X8.7130 Y33.4199
G01 X8.7044 Y33.3616
G01 X8.6965 Y33.2815
G01 X8.6936 Y33.2227
G01 X8.6926 Y33.1824
G01 X8.6926 Y9.8997
G00 Z2.0000
G00 X8.8726 Y9.8348
G01 F60.00
G01 Z-0.0900
G01 F120.00
G01 X8.8657 Y9.8272
G01 X8.8259 Y9.7786
G01 X8.7674 Y9.6998
G01 X8.7325 Y9.6476
G01 X8.6821 Y9.5634
G01 X8.6524 Y9.5080
G01 X8.6105 Y9.4193
G01 X8.5865 Y9.3613
G01 X8.5534 Y9.2689
G01 X8.5352 Y9.2088
G01 X8.5113 Y9.1136
G01 X8.4991 Y9.0520
G01 X8.4847 Y8.9549
G01 X8.4785 Y8.8924
G01 X8.4737 Y8.7944
G01 X8.4737 Y8.7316
G01 X8.4785 Y8.6335
G01 X8.4847 Y8.5710
G01 X8.4991 Y8.4740
G01 X8.5113 Y8.4124
G01 X8.5352 Y8.3172
G01 X8.5534 Y8.2571
G01 X8.5865 Y8.1647
G01 X8.6105 Y8.1067
G01 X8.6524 Y8.0179
G01 X8.6821 Y7.9625
G01 X8.7325 Y7.8784
G01 X8.7674 Y7.8262
G01 X8.8259 Y7.7473
G01 X8.8657 Y7.6988
G01 X8.9316 Y7.6261
G01 X8.9760 Y7.5817
G01 X9.0487 Y7.5158
G01 X9.0973 Y7.4759
G01 X9.1761 Y7.4174
G01 X9.2283 Y7.3826
G01 X9.3125 Y7.3321
G01 X9.3679 Y7.3025
G01 X9.4566 Y7.2605
G01 X9.5146 Y7.2365
G01 X9.6070 Y7.2034
G01 X9.6671 Y7.1852
G01 X9.7623 Y7.1614
G01 X9.8239 Y7.1491
G01 X9.9210 Y7.1347
G01 X9.9835 Y7.1286
G01 X10.0815 Y7.1237
G01 X10.1443 Y7.1237
G01 X10.2423 Y7.1286
G01 X10.3048 Y7.1347
G01 X10.4019 Y7.1491
G01 X10.4635 Y7.1614
G01 X10.5587 Y7.1852
G01 X10.6188 Y7.2034
G01 X10.7112 Y7.2365
G01 X10.7692 Y7.2605
G01 X10.8580 Y7.3025
G01 X10.9133 Y7.3321
G01 X10.9975 Y7.3826
G01 X11.0497 Y7.4174
G01 X11.1286 Y7.4759
G01 X11.1771 Y7.5158
G01 X11.2498 Y7.5817
G01 X11.2942 Y7.6261
G01 X11.3601 Y7.6988
G01 X11.4000 Y7.7473
G01 X11.4584 Y7.8262
G01 X11.4933 Y7.8784
G01 X11.5438 Y7.9625
G01 X11.5734 Y8.0179
G01 X11.6154 Y8.1067
G01 X11.6394 Y8.1647
G01 X11.6724 Y8.2571
G01 X11.6907 Y8.3172
G01 X11.7145 Y8.4124
G01 X11.7268 Y8.4740
G01 X11.7412 Y8.5710
G01 X11.7473 Y8.6335
G01 X11.7521 Y8.7316
G01 X11.7521 Y8.7944
G01 X11.7473 Y8.8924
G01 X11.7412 Y8.9549
G01 X11.7268 Y9.0520
G01 X11.7145 Y9.1136
G01 X11.6907 Y9.2088
G01 X11.6724 Y9.2689
G01 X11.6394 Y9.3613
G01 X11.6154 Y9.4193
G01 X11.5734 Y9.5080
G01 X11.5438 Y9.5634
G01 X11.4933 Y9.6476
G01 X11.4584 Y9.6998
G01 X11.4000 Y9.7786
G01 X11.3601 Y9.8272
G01 X11.3532 Y9.8348
G01 X11.3532 Y32.6687
G01 X13.8796 Y35.1951
G01 X13.8899 Y35.1956
G01 X13.9524 Y35.2017
G01 X14.0494 Y35.2161
G01 X14.1110 Y35.2284
G01 X14.2062 Y35.2522
G01 X14.2663 Y35.2705
G01 X14.3587 Y35.3035
G01 X14.4168 Y35.3276
G01 X14.5055 Y35.3695
G01 X14.5609 Y35.3991
G01 X14.6450 Y35.4496
G01 X14.6973 Y35.4845
G01 X14.7761 Y35.5429
G01 X14.8246 Y35.5828
G01 X14.8973 Y35.6487
G01 X14.9418 Y35.6931
G01 X15.0077 Y35.7658
G01 X15.0475 Y35.8144
G01 X15.1060 Y35.8932
G01 X15.1409 Y35.9454
G01 X15.1913 Y36.0296
G01 X15.2209 Y36.0850
G01 X15.2629 Y36.1737
G01 X15.2869 Y36.2317
G01 X15.3200 Y36.3241
G01 X15.3382 Y36.3842
G01 X15.3620 Y36.4794
G01 X15.3743 Y36.5410
G01 X15.3887 Y36.6381
G01 X15.3949 Y36.7006
G01 X15.3954 Y36.7109
G01 X20.1162 Y41.4317
G01 X27.6333 Y41.4317
G01 X28.8117 Y40.2533
G01 X28.8117 Y34.1630
G01 X28.8125 Y34.1316
G01 X28.8154 Y34.0728
G01 X28.8215 Y34.0103
G01 X28.8302 Y33.9520
G01 X28.8424 Y33.8904
G01 X28.8567 Y33.8332
G01 X28.8750 Y33.7731
G01 X28.8948 Y33.7177
G01 X28.9188 Y33.6596
G01 X28.9440 Y33.6064
G01 X28.9736 Y33.5510
G01 X29.0039 Y33.5005
G01 X29.0388 Y33.4482
G01 X29.0739 Y33.4009
G01 X29.1137 Y33.3524
G01 X29.1533 Y33.3087
G01 X29.1750 Y33.2860
G01 X35.8704 Y26.5905
G01 X35.8931 Y26.5688
G01 X35.9368 Y26.5293
G01 X35.9853 Y26.4894
G01 X36.0327 Y26.4543
G01 X36.0849 Y26.4195
G01 X36.1354 Y26.3892
G01 X36.1908 Y26.3596
G01 X36.2440 Y26.3344
G01 X36.3021 Y26.3103
G01 X36.3575 Y26.2905
G01 X36.4176 Y26.2723
G01 X36.4748 Y26.2579
G01 X36.5364 Y26.2457
G01 X36.5947 Y26.2370
G01 X36.6572 Y26.2309
G01 X36.7160 Y26.2280
G01 X36.7474 Y26.2272
G01 X40.4102 Y26.2272
G01 X40.4178 Y26.2203
G01 X40.4664 Y26.1805
G01 X40.5452 Y26.1220
G01 X40.5974 Y26.0871
G01 X40.6816 Y26.0367
G01 X40.7370 Y26.0071
G01 X40.8257 Y25.9651
G01 X40.8837 Y25.9411
G01 X40.9761 Y25.9080
G01 X41.0362 Y25.8898
G01 X41.1314 Y25.8659
G01 X41.1930 Y25.8537
G01 X41.2901 Y25.8393
G01 X41.3526 Y25.8331
G01 X41.4506 Y25.8283
G01 X41.5134 Y25.8283
G01 X41.6114 Y25.8331
G01 X41.6739 Y25.8393
G01 X41.7710 Y25.8537
G01 X41.8326 Y25.8659
G01 X41.9278 Y25.8898
G01 X41.9879 Y25.9080
G01 X42.0803 Y25.9411
G01 X42.1383 Y25.9651
G01 X42.2270 Y26.0071
G01 X42.2824 Y26.0367
G01 X42.3666 Y26.0871
G01 X42.4188 Y26.1220
G01 X42.4976 Y26.1805
G01 X42.5462 Y26.2203
G01 X42.6189 Y26.2862
G01 X42.6633 Y26.3306
G01 X42.7292 Y26.4034
G01 X42.7691 Y26.4519
G01 X42.8275 Y26.5307
G01 X42.8624 Y26.5830
G01 X42.9129 Y26.6671
G01 X42.9425 Y26.7225
G01 X42.9844 Y26.8112
G01 X43.0085 Y26.8693
G01 X43.0415 Y26.9617
G01 X43.0598 Y27.0218
G01 X43.0836 Y27.1170
G01 X43.0959 Y27.1786
G01 X43.1103 Y27.2756
G01 X43.1164 Y27.3381
G01 X43.1212 Y27.4361
G01 X43.1212 Y27.4990
G01 X43.1164 Y27.5970
G01 X43.1103 Y27.6595
G01 X43.0959 Y27.7565
G01 X43.0836 Y27.8181
G01 X43.0598 Y27.9133
G01 X43.0415 Y27.9734
G01 X43.0085 Y28.0658
G01 X42.9844 Y28.1239
G01 X42.9425 Y28.2126
G01 X42.9129 Y28.2680
G01 X42.8624 Y28.3521
G01 X42.8275 Y28.4044
G01 X42.7691 Y28.4832
G01 X42.7292 Y28.5317
G01 X42.6633 Y28.6045
G01 X42.6189 Y28.6489
G01 X42.5462 Y28.7148
G01 X42.4976 Y28.7546
G01 X42.4188 Y28.8131
G01 X42.3666 Y28.8480
G01 X42.2824 Y28.8984
G01 X42.2270 Y28.9280
G01 X42.1383 Y28.9700
G01 X42.0803 Y28.9940
G01 X41.9879 Y29.0271
G01 X41.9278 Y29.0453
G01 X41.8326 Y29.0692
G01 X41.7710 Y29.0814
G01 X41.6739 Y29.0958
G01 X41.6114 Y29.1020
G01 X41.5134 Y29.1068
G01 X41.4506 Y29.1068
G01 X41.3526 Y29.1020
G01 X41.2901 Y29.0958
G01 X41.1930 Y29.0814
G01 X41.1314 Y29.0692
G01 X41.0362 Y29.0453
G01 X40.9761 Y29.0271
G01 X40.8837 Y28.9940
G01 X40.8257 Y28.9700
G01 X40.7370 Y28.9280
G01 X40.6816 Y28.8984
G01 X40.5974 Y28.8480
G01 X40.5452 Y28.8131
G01 X40.4664 Y28.7546
G01 X40.4178 Y28.7148
G01 X40.4102 Y28.7078
G01 X37.2612 Y28.7078
G01 X31.2923 Y34.6767
G01 X31.2923 Y40.7670
G01 X31.2915 Y40.7984
G01 X31.2886 Y40.8572
G01 X31.2825 Y40.9197
G01 X31.2738 Y40.9780
G01 X31.2616 Y41.0396
G01 X31.2473 Y41.0968
G01 X31.2290 Y41.1569
G01 X31.2092 Y41.2123
G01 X31.1852 Y41.2704
G01 X31.1600 Y41.3236
G01 X31.1304 Y41.3790
G01 X31.1001 Y41.4295
G01 X31.0652 Y41.4818
G01 X31.0301 Y41.5291
G01 X30.9902 Y41.5776
G01 X30.9507 Y41.6213
G01 X30.9290 Y41.6440
G01 X29.0240 Y43.5490
G01 X29.0013 Y43.5707
G01 X28.9576 Y43.6102
G01 X28.9091 Y43.6501
G01 X28.8618 Y43.6852
G01 X28.8095 Y43.7201
G01 X28.7590 Y43.7504
G01 X28.7036 Y43.7800
G01 X28.6504 Y43.8052
G01 X28.5923 Y43.8292
G01 X28.5369 Y43.8490
G01 X28.4768 Y43.8673
G01 X28.4196 Y43.8816
G01 X28.3580 Y43.8938
G01 X28.2997 Y43.9025
G01 X28.2372 Y43.9086
G01 X28.1784 Y43.9115
G01 X28.1470 Y43.9123
G01 X19.6024 Y43.9123
G01 X19.5710 Y43.9115
G01 X19.5122 Y43.9086
G01 X19.4497 Y43.9025
G01 X19.3914 Y43.8938
G01 X19.3298 Y43.8816
G01 X19.2726 Y43.8673
G01 X19.2125 Y43.8490
G01 X19.1571 Y43.8292
G01 X19.0990 Y43.8052
G01 X19.0458 Y43.7800
G01 X18.9904 Y43.7504
G01 X18.9399 Y43.7201
G01 X18.8877 Y43.6852
G01 X18.8403 Y43.6501
G01 X18.7918 Y43.6102
G01 X18.7481 Y43.5707
G01 X18.7254 Y43.5490
G01 X13.6413 Y38.4649
G01 X13.6310 Y38.4644
G01 X13.5685 Y38.4583
G01 X13.4714 Y38.4439
G01 X13.4098 Y38.4316
G01 X13.3146 Y38.4078
G01 X13.2545 Y38.3895
G01 X13.1621 Y38.3565
G01 X13.1041 Y38.3324
G01 X13.0154 Y38.2905
G01 X12.9600 Y38.2609
G01 X12.8758 Y38.2104
G01 X12.8236 Y38.1755
G01 X12.7448 Y38.1171
G01 X12.6962 Y38.0772
G01 X12.6235 Y38.0113
G01 X12.5791 Y37.9669
G01 X12.5132 Y37.8942
G01 X12.4734 Y37.8456
G01 X12.4149 Y37.7668
G01 X12.3800 Y37.7146
G01 X12.3296 Y37.6304
G01 X12.3000 Y37.5750
G01 X12.2580 Y37.4863
G01 X12.2340 Y37.4283
G01 X12.2009 Y37.3359
G01 X12.1827 Y37.2758
G01 X12.1588 Y37.1806
G01 X12.1466 Y37.1190
G01 X12.1322 Y37.0219
G01 X12.1260 Y36.9594
G01 X12.1255 Y36.9491
G01 X9.2359 Y34.0595
G01 X9.2142 Y34.0367
G01 X9.1747 Y33.9931
G01 X9.1348 Y33.9445
G01 X9.0997 Y33.8972
G01 X9.0649 Y33.8450
G01 X9.0346 Y33.7944
G01 X9.0050 Y33.7391
G01 X8.9798 Y33.6858
G01 X8.9557 Y33.6278
G01 X8.9359 Y33.5723
G01 X8.9177 Y33.5122
G01 X8.9034 Y33.4551
G01 X8.8911 Y33.3935
G01 X8.8825 Y33.3352
G01 X8.8763 Y33.2727
G01 X8.8734 Y33.2139
G01 X8.8726 Y33.1824
G01 X8.8726 Y9.8348
G00 Z2.0000
G00 X9.0526 Y9.7654
G01 F60.00
G01 Z-0.0900
G01 F120.00
G01 X8.9991 Y9.7063
G01 X8.9704 Y9.6714
G01 X8.9120 Y9.5926
G01 X8.8869 Y9.5550
G01 X8.8364 Y9.4709
G01 X8.8152 Y9.4310
G01 X8.7732 Y9.3423
G01 X8.7559 Y9.3006
G01 X8.7229 Y9.2082
G01 X8.7098 Y9.1650
G01 X8.6859 Y9.0698
G01 X8.6771 Y9.0256
G01 X8.6627 Y8.9285
G01 X8.6583 Y8.8836
G01 X8.6535 Y8.7855
G01 X8.6535 Y8.7404
G01 X8.6583 Y8.6424
G01 X8.6627 Y8.5975
G01 X8.6771 Y8.5004
G01 X8.6859 Y8.4561
G01 X8.7098 Y8.3609
G01 X8.7229 Y8.3177
G01 X8.7559 Y8.2253
G01 X8.7732 Y8.1836
G01 X8.8152 Y8.0949
G01 X8.8364 Y8.0551
G01 X8.8869 Y7.9709
G01 X8.9120 Y7.9334
G01 X8.9704 Y7.8546
G01 X8.9991 Y7.8197
G01 X9.0650 Y7.7469
G01 X9.0969 Y7.7150
G01 X9.1696 Y7.6491
G01 X9.2045 Y7.6205
G01 X9.2833 Y7.5620
G01 X9.3209 Y7.5369
G01 X9.4050 Y7.4865
G01 X9.4448 Y7.4652
G01 X9.5336 Y7.4233
G01 X9.5753 Y7.4060
G01 X9.6677 Y7.3729
G01 X9.7109 Y7.3598
G01 X9.8061 Y7.3360
G01 X9.8503 Y7.3272
G01 X9.9474 Y7.3128
G01 X9.9923 Y7.3083
G01 X10.0903 Y7.3035
G01 X10.1355 Y7.3035
G01 X10.2335 Y7.3083
G01 X10.2784 Y7.3128
G01 X10.3755 Y7.3272
G01 X10.4198 Y7.3360
G01 X10.5150 Y7.3598
G01 X10.5582 Y7.3729
G01 X10.6506 Y7.4060
G01 X10.6923 Y7.4233
G01 X10.7810 Y7.4652
G01 X10.8208 Y7.4865
G01 X10.9050 Y7.5369
G01 X10.9425 Y7.5620
G01 X11.0213 Y7.6205
G01 X11.0562 Y7.6491
G01 X11.1289 Y7.7150
G01 X11.1609 Y7.7469
G01 X11.2268 Y7.8197
G01 X11.2554 Y7.8546
G01 X11.3139 Y7.9334
G01 X11.3389 Y7.9709
G01 X11.3894 Y8.0551
G01 X11.4107 Y8.0949
G01 X11.4526 Y8.1836
G01 X11.4699 Y8.2253
G01 X11.5030 Y8.3177
G01 X11.5161 Y8.3609
G01 X11.5399 Y8.4561
G01 X11.5487 Y8.5004
G01 X11.5631 Y8.5975
G01 X11.5676 Y8.6424
G01 X11.5724 Y8.7404
G01 X11.5724 Y8.7855
G01 X11.5676 Y8.8836
G01 X11.5631 Y8.9285
G01 X11.5487 Y9.0256
G01 X11.5399 Y9.0698
G01 X11.5161 Y9.1650
G01 X11.5030 Y9.2082
G01 X11.4699 Y9.3006
G01 X11.4526 Y9.3423
G01 X11.4107 Y9.4310
G01 X11.3894 Y9.4709
G01 X11.3389 Y9.5550
G01 X11.3139 Y9.5926
G01 X11.2554 Y9.6714
G01 X11.2268 Y9.7063
G01 X11.1732 Y9.7653
G01 X11.1732 Y32.7433
G01 X13.8014 Y35.3715
G01 X13.8810 Y35.3754
G01 X13.9260 Y35.3798
G01 X14.0230 Y35.3942
G01 X14.0673 Y35.4030
G01 X14.1625 Y35.4268
G01 X14.2057 Y35.4399
G01 X14.2981 Y35.4730
G01 X14.3398 Y35.4903
G01 X14.4285 Y35.5322
G01 X14.4683 Y35.5535
G01 X14.5525 Y35.6040
G01 X14.5900 Y35.6291
G01 X14.6689 Y35.6875
G01 X14.7038 Y35.7162
G01 X14.7765 Y35.7821
G01 X14.8084 Y35.8140
G01 X14.8743 Y35.8867
G01 X14.9029 Y35.9216
G01 X14.9614 Y36.0004
G01 X14.9865 Y36.0379
G01 X15.0369 Y36.1221
G01 X15.0582 Y36.1619
G01 X15.1002 Y36.2506
G01 X15.1174 Y36.2923
G01 X15.1505 Y36.3847
G01 X15.1636 Y36.4279
G01 X15.1874 Y36.5231
G01 X15.1962 Y36.5674
G01 X15.2106 Y36.6645
G01 X15.2151 Y36.7094
G01 X15.2190 Y36.7891
G01 X20.0416 Y41.6117
G01 X27.7078 Y41.6117
G01 X28.9917 Y40.3278
G01 X28.9917 Y34.1630
G01 X28.9923 Y34.1404
G01 X28.9951 Y34.0816
G01 X28.9996 Y34.0367
G01 X29.0082 Y33.9784
G01 X29.0170 Y33.9341
G01 X29.0313 Y33.8770
G01 X29.0444 Y33.8338
G01 X29.0643 Y33.7783
G01 X29.0816 Y33.7366
G01 X29.1067 Y33.6833
G01 X29.1280 Y33.6435
G01 X29.1583 Y33.5930
G01 X29.1834 Y33.5555
G01 X29.2185 Y33.5082
G01 X29.2471 Y33.4733
G01 X29.2867 Y33.4296
G01 X29.3023 Y33.4133
G01 X35.9977 Y26.7178
G01 X36.0140 Y26.7022
G01 X36.0577 Y26.6627
G01 X36.0926 Y26.6340
G01 X36.1399 Y26.5989
G01 X36.1774 Y26.5738
G01 X36.2279 Y26.5436
G01 X36.2678 Y26.5223
G01 X36.3210 Y26.4971
G01 X36.3627 Y26.4798
G01 X36.4182 Y26.4600
G01 X36.4614 Y26.4469
G01 X36.5185 Y26.4326
G01 X36.5628 Y26.4237
G01 X36.6211 Y26.4151
G01 X36.6660 Y26.4107
G01 X36.7248 Y26.4078
G01 X36.7474 Y26.4072
G01 X40.4796 Y26.4072
G01 X40.5387 Y26.3537
G01 X40.5736 Y26.3251
G01 X40.6524 Y26.2666
G01 X40.6899 Y26.2415
G01 X40.7741 Y26.1911
G01 X40.8139 Y26.1698
G01 X40.9026 Y26.1278
G01 X40.9443 Y26.1106
G01 X41.0367 Y26.0775
G01 X41.0799 Y26.0644
G01 X41.1751 Y26.0406
G01 X41.2194 Y26.0317
G01 X41.3165 Y26.0173
G01 X41.3614 Y26.0129
G01 X41.4594 Y26.0081
G01 X41.5046 Y26.0081
G01 X41.6026 Y26.0129
G01 X41.6475 Y26.0173
G01 X41.7446 Y26.0317
G01 X41.7889 Y26.0406
G01 X41.8841 Y26.0644
G01 X41.9273 Y26.0775
G01 X42.0197 Y26.1106
G01 X42.0614 Y26.1278
G01 X42.1501 Y26.1698
G01 X42.1899 Y26.1911
G01 X42.2741 Y26.2415
G01 X42.3116 Y26.2666
G01 X42.3904 Y26.3251
G01 X42.4253 Y26.3537
G01 X42.4980 Y26.4196
G01 X42.5299 Y26.4515
G01 X42.5958 Y26.5242
G01 X42.6245 Y26.5591
G01 X42.6829 Y26.6380
G01 X42.7080 Y26.6755
G01 X42.7585 Y26.7597
G01 X42.7798 Y26.7995
G01 X42.8217 Y26.8882
G01 X42.8390 Y26.9299
G01 X42.8721 Y27.0223
G01 X42.8852 Y27.0655
G01 X42.9090 Y27.1607
G01 X42.9178 Y27.2050
G01 X42.9322 Y27.3020
G01 X42.9366 Y27.3470
G01 X42.9414 Y27.4450
G01 X42.9414 Y27.4901
G01 X42.9366 Y27.5881
G01 X42.9322 Y27.6331
G01 X42.9178 Y27.7301
G01 X42.9090 Y27.7744
G01 X42.8852 Y27.8696
G01 X42.8721 Y27.9128
G01 X42.8390 Y28.0052
G01 X42.8217 Y28.0469
G01 X42.7798 Y28.1356
G01 X42.7585 Y28.1754
G01 X42.7080 Y28.2596
G01 X42.6829 Y28.2971
G01 X42.6245 Y28.3760
G01 X42.5958 Y28.4109
G01 X42.5299 Y28.4836
G01 X42.4980 Y28.5155
G01 X42.4253 Y28.5814
G01 X42.3904 Y28.6100
G01 X42.3116 Y28.6685
G01 X42.2741 Y28.6936
G01 X42.1899 Y28.7440
G01 X42.1501 Y28.7653
G01 X42.0614 Y28.8073
G01 X42.0197 Y28.8245
G01 X41.9273 Y28.8576
G01 X41.8841 Y28.8707
G01 X41.7889 Y28.8945
G01 X41.7446 Y28.9034
G01 X41.6475 Y28.9178
G01 X41.6026 Y28.9222
G01 X41.5046 Y28.9270
G01 X41.4594 Y28.9270
G01 X41.3614 Y28.9222
G01 X41.3165 Y28.9178
G01 X41.2194 Y28.9034
G01 X41.1751 Y28.8945
G01 X41.0799 Y28.8707
G01 X41.0367 Y28.8576
G01 X40.9443 Y28.8245
G01 X40.9026 Y28.8073
G01 X40.8139 Y28.7653
G01 X40.7741 Y28.7440
G01 X40.6899 Y28.6936
G01 X40.6524 Y28.6685
G01 X40.5736 Y28.6100
G01 X40.5387 Y28.5814
G01 X40.4796 Y28.5278
G01 X37.1866 Y28.5278
G01 X31.1123 Y34.6022
G01 X31.1123 Y40.7670
G01 X31.1117 Y40.7896
G01 X31.1089 Y40.8484
G01 X31.1044 Y40.8933
G01 X31.0958 Y40.9516
G01 X31.0870 Y40.9959
G01 X31.0727 Y41.0530
G01 X31.0596 Y41.0962
G01 X31.0397 Y41.1517
G01 X31.0224 Y41.1934
G01 X30.9973 Y41.2467
G01 X30.9760 Y41.2865
G01 X30.9457 Y41.3370
G01 X30.9206 Y41.3745
G01 X30.8855 Y41.4218
G01 X30.8569 Y41.4567
G01 X30.8173 Y41.5004
G01 X30.8017 Y41.5167
G01 X28.8967 Y43.4217
G01 X28.8804 Y43.4373
G01 X28.8367 Y43.4769
G01 X28.8018 Y43.5055
G01 X28.7545 Y43.5406
G01 X28.7170 Y43.5657
G01 X28.6665 Y43.5960
G01 X28.6267 Y43.6173
G01 X28.5734 Y43.6424
G01 X28.5317 Y43.6597
G01 X28.4762 Y43.6796
G01 X28.4330 Y43.6927
G01 X28.3759 Y43.7070
G01 X28.3316 Y43.7158
G01 X28.2733 Y43.7244
G01 X28.2284 Y43.7289
G01 X28.1696 Y43.7317
G01 X28.1470 Y43.7323
G01 X19.6024 Y43.7323
G01 X19.5798 Y43.7317
G01 X19.5210 Y43.7289
G01 X19.4761 Y43.7244
G01 X19.4178 Y43.7158
G01 X19.3735 Y43.7070
G01 X19.3164 Y43.6927
G01 X19.2732 Y43.6796
G01 X19.2177 Y43.6597
G01 X19.1760 Y43.6424
G01 X19.1228 Y43.6173
G01 X19.0829 Y43.5960
G01 X19.0324 Y43.5657
G01 X18.9949 Y43.5406
G01 X18.9476 Y43.5055
G01 X18.9127 Y43.4769
G01 X18.8690 Y43.4373
G01 X18.8527 Y43.4217
G01 X13.7195 Y38.2885
G01 X13.6399 Y38.2846
G01 X13.5949 Y38.2802
G01 X13.4979 Y38.2658
G01 X13.4536 Y38.2570
G01 X13.3584 Y38.2332
G01 X13.3152 Y38.2201
G01 X13.2228 Y38.1870
G01 X13.1811 Y38.1697
G01 X13.0924 Y38.1278
G01 X13.0526 Y38.1065
G01 X12.9684 Y38.0560
G01 X12.9308 Y38.0309
G01 X12.8520 Y37.9725
G01 X12.8171 Y37.9438
G01 X12.7444 Y37.8779
G01 X12.7125 Y37.8460
G01 X12.6466 Y37.7733
G01 X12.6180 Y37.7384
G01 X12.5595 Y37.6596
G01 X12.5344 Y37.6221
G01 X12.4840 Y37.5379
G01 X12.4627 Y37.4981
G01 X12.4207 Y37.4094
G01 X12.4035 Y37.3677
G01 X12.3704 Y37.2753
G01 X12.3573 Y37.2321
G01 X12.3334 Y37.1369
G01 X12.3246 Y37.0926
G01 X12.3102 Y36.9955
G01 X12.3058 Y36.9506
G01 X12.3019 Y36.8710
G01 X9.3632 Y33.9322
G01 X9.3476 Y33.9158
G01 X9.3081 Y33.8722
G01 X9.2794 Y33.8373
G01 X9.2443 Y33.7900
G01 X9.2192 Y33.7524
G01 X9.1890 Y33.7019
G01 X9.1677 Y33.6621
G01 X9.1425 Y33.6088
G01 X9.1252 Y33.5671
G01 X9.1054 Y33.5117
G01 X9.0923 Y33.4685
G01 X9.0780 Y33.4113
G01 X9.0692 Y33.3671
G01 X9.0605 Y33.3088
G01 X9.0561 Y33.2639
G01 X9.0532 Y33.2050
G01 X9.0526 Y33.1824
G01 X9.0526 Y9.7654
G00 Z2.0000
G00 X9.2326 Y9.6910
G01 F60.00
G01 Z-0.0900
G01 F120.00
G01 X9.2178 Y9.6775
G01 X9.1983 Y9.6581
G01 X9.1324 Y9.5854
G01 X9.1150 Y9.5642
G01 X9.0566 Y9.4853
G01 X9.0413 Y9.4625
G01 X8.9908 Y9.3783
G01 X8.9779 Y9.3541
G01 X8.9359 Y9.2654
G01 X8.9254 Y9.2400
G01 X8.8923 Y9.1476
G01 X8.8844 Y9.1213
G01 X8.8605 Y9.0261
G01 X8.8552 Y8.9991
G01 X8.8408 Y8.9021
G01 X8.8381 Y8.8747
G01 X8.8333 Y8.7767
G01 X8.8333 Y8.7492
G01 X8.8381 Y8.6512
G01 X8.8408 Y8.6239
G01 X8.8552 Y8.5268
G01 X8.8605 Y8.4998
G01 X8.8844 Y8.4047
G01 X8.8923 Y8.3784
G01 X8.9254 Y8.2860
G01 X8.9359 Y8.2606
G01 X8.9779 Y8.1719
G01 X8.9908 Y8.1476
G01 X9.0413 Y8.0635
G01 X9.0566 Y8.0406
G01 X9.1150 Y7.9618
G01 X9.1324 Y7.9405
G01 X9.1983 Y7.8678
G01 X9.2178 Y7.8484
G01 X9.2905 Y7.7825
G01 X9.3117 Y7.7651
G01 X9.3906 Y7.7066
G01 X9.4134 Y7.6913
G01 X9.4976 Y7.6409
G01 X9.5218 Y7.6279
G01 X9.6105 Y7.5860
G01 X9.6359 Y7.5755
G01 X9.7283 Y7.5424
G01 X9.7546 Y7.5344
G01 X9.8498 Y7.5106
G01 X9.8767 Y7.5052
G01 X9.9738 Y7.4908
G01 X10.0012 Y7.4881
G01 X10.0992 Y7.4833
G01 X10.1267 Y7.4833
G01 X10.2247 Y7.4881
G01 X10.2520 Y7.4908
G01 X10.3491 Y7.5052
G01 X10.3760 Y7.5106
G01 X10.4712 Y7.5344
G01 X10.4975 Y7.5424
G01 X10.5899 Y7.5755
G01 X10.6153 Y7.5860
G01 X10.7040 Y7.6279
G01 X10.7283 Y7.6409
G01 X10.8124 Y7.6913
G01 X10.8353 Y7.7066
G01 X10.9141 Y7.7651
G01 X10.9353 Y7.7825
G01 X11.0081 Y7.8484
G01 X11.0275 Y7.8678
G01 X11.0934 Y7.9405
G01 X11.1108 Y7.9618
G01 X11.1693 Y8.0406
G01 X11.1846 Y8.0635
G01 X11.2350 Y8.1476
G01 X11.2480 Y8.1719
G01 X11.2899 Y8.2606
G01 X11.3004 Y8.2860
G01 X11.3335 Y8.3784
G01 X11.3415 Y8.4047
G01 X11.3653 Y8.4998
G01 X11.3707 Y8.5268
G01 X11.3851 Y8.6239
G01 X11.3878 Y8.6512
G01 X11.3926 Y8.7492
G01 X11.3926 Y8.7767
G01 X11.3878 Y8.8747
G01 X11.3851 Y8.9021
G01 X11.3707 Y8.9991
G01 X11.3653 Y9.0261
G01 X11.3415 Y9.1213
G01 X11.3335 Y9.1476
G01 X11.3004 Y9.2400
G01 X11.2899 Y9.2654
G01 X11.2480 Y9.3541
G01 X11.2350 Y9.3783
G01 X11.1846 Y9.4625
G01 X11.1693 Y9.4853
G01 X11.1108 Y9.5642
G01 X11.0934 Y9.5854
G01 X11.0275 Y9.6581
G01 X11.0081 Y9.6775
G01 X10.9932 Y9.6910
G01 X10.9932 Y32.8178
G01 X13.7267 Y35.5513
G01 X13.7467 Y35.5503
G01 X13.7742 Y35.5503
G01 X13.8722 Y35.5552
G01 X13.8995 Y35.5578
G01 X13.9966 Y35.5722
G01 X14.0236 Y35.5776
G01 X14.1188 Y35.6015
G01 X14.1451 Y35.6094
G01 X14.2375 Y35.6425
G01 X14.2628 Y35.6530
G01 X14.3516 Y35.6950
G01 X14.3758 Y35.7079
G01 X14.4600 Y35.7584
G01 X14.4828 Y35.7736
G01 X14.5616 Y35.8321
G01 X14.5829 Y35.8495
G01 X14.6556 Y35.9154
G01 X14.6750 Y35.9349
G01 X14.7409 Y36.0076
G01 X14.7583 Y36.0288
G01 X14.8168 Y36.1076
G01 X14.8321 Y36.1305
G01 X14.8825 Y36.2147
G01 X14.8955 Y36.2389
G01 X14.9374 Y36.3276
G01 X14.9480 Y36.3530
G01 X14.9810 Y36.4454
G01 X14.9890 Y36.4717
G01 X15.0128 Y36.5669
G01 X15.0182 Y36.5938
G01 X15.0326 Y36.6909
G01 X15.0353 Y36.7182
G01 X15.0401 Y36.8163
G01 X15.0401 Y36.8437
G01 X15.0391 Y36.8638
G01 X19.9670 Y41.7917
G01 X27.7824 Y41.7917
G01 X29.1717 Y40.4024
G01 X29.1717 Y34.1630
G01 X29.1720 Y34.1493
G01 X29.1749 Y34.0904
G01 X29.1776 Y34.0631
G01 X29.1863 Y34.0048
G01 X29.1916 Y33.9779
G01 X29.2059 Y33.9207
G01 X29.2139 Y33.8944
G01 X29.2338 Y33.8389
G01 X29.2443 Y33.8136
G01 X29.2695 Y33.7603
G01 X29.2824 Y33.7361
G01 X29.3127 Y33.6855
G01 X29.3280 Y33.6627
G01 X29.3631 Y33.6154
G01 X29.3805 Y33.5941
G01 X29.4201 Y33.5505
G01 X29.4295 Y33.5405
G01 X36.1249 Y26.8451
G01 X36.1349 Y26.8356
G01 X36.1785 Y26.7960
G01 X36.1998 Y26.7786
G01 X36.2471 Y26.7435
G01 X36.2699 Y26.7282
G01 X36.3205 Y26.6979
G01 X36.3447 Y26.6850
G01 X36.3980 Y26.6598
G01 X36.4234 Y26.6493
G01 X36.4788 Y26.6294
G01 X36.5051 Y26.6215
G01 X36.5623 Y26.6072
G01 X36.5892 Y26.6018
G01 X36.6475 Y26.5932
G01 X36.6748 Y26.5905
G01 X36.7337 Y26.5876
G01 X36.7474 Y26.5872
G01 X40.5540 Y26.5872
G01 X40.5674 Y26.5724
G01 X40.5869 Y26.5530
G01 X40.6596 Y26.4871
G01 X40.6808 Y26.4696
G01 X40.7596 Y26.4112
G01 X40.7825 Y26.3959
G01 X40.8667 Y26.3455
G01 X40.8909 Y26.3325
G01 X40.9796 Y26.2906
G01 X41.0050 Y26.2800
G01 X41.0974 Y26.2470
G01 X41.1237 Y26.2390
G01 X41.2189 Y26.2152
G01 X41.2458 Y26.2098
G01 X41.3429 Y26.1954
G01 X41.3702 Y26.1927
G01 X41.4683 Y26.1879
G01 X41.4957 Y26.1879
G01 X41.5938 Y26.1927
G01 X41.6211 Y26.1954
G01 X41.7182 Y26.2098
G01 X41.7451 Y26.2152
G01 X41.8403 Y26.2390
G01 X41.8666 Y26.2470
G01 X41.9590 Y26.2800
G01 X41.9844 Y26.2906
G01 X42.0731 Y26.3325
G01 X42.0973 Y26.3455
G01 X42.1815 Y26.3959
G01 X42.2044 Y26.4112
G01 X42.2832 Y26.4696
G01 X42.3044 Y26.4871
G01 X42.3771 Y26.5530
G01 X42.3966 Y26.5724
G01 X42.4625 Y26.6451
G01 X42.4799 Y26.6664
G01 X42.5384 Y26.7452
G01 X42.5536 Y26.7680
G01 X42.6041 Y26.8522
G01 X42.6170 Y26.8764
G01 X42.6590 Y26.9652
G01 X42.6695 Y26.9905
G01 X42.7026 Y27.0829
G01 X42.7105 Y27.1092
G01 X42.7344 Y27.2044
G01 X42.7398 Y27.2314
G01 X42.7542 Y27.3284
G01 X42.7568 Y27.3558
G01 X42.7617 Y27.4538
G01 X42.7617 Y27.4813
G01 X42.7568 Y27.5793
G01 X42.7542 Y27.6067
G01 X42.7398 Y27.7037
G01 X42.7344 Y27.7307
G01 X42.7105 Y27.8259
G01 X42.7026 Y27.8522
G01 X42.6695 Y27.9446
G01 X42.6590 Y27.9699
G01 X42.6170 Y28.0587
G01 X42.6041 Y28.0829
G01 X42.5536 Y28.1671
G01 X42.5384 Y28.1899
G01 X42.4799 Y28.2687
G01 X42.4625 Y28.2900
G01 X42.3966 Y28.3627
G01 X42.3771 Y28.3821
G01 X42.3044 Y28.4480
G01 X42.2832 Y28.4655
G01 X42.2044 Y28.5239
G01 X42.1815 Y28.5392
G01 X42.0973 Y28.5896
G01 X42.0731 Y28.6026
G01 X41.9844 Y28.6445
G01 X41.9590 Y28.6551
G01 X41.8666 Y28.6881
G01 X41.8403 Y28.6961
G01 X41.7451 Y28.7199
G01 X41.7182 Y28.7253
G01 X41.6211 Y28.7397
G01 X41.5938 Y28.7424
G01 X41.4957 Y28.7472
G01 X41.4683 Y28.7472
G01 X41.3702 Y28.7424
G01 X41.3429 Y28.7397
G01 X41.2458 Y28.7253
G01 X41.2189 Y28.7199
G01 X41.1237 Y28.6961
G01 X41.0974 Y28.6881
G01 X41.0050 Y28.6551
G01 X40.9796 Y28.6445
G01 X40.8909 Y28.6026
G01 X40.8667 Y28.5896
G01 X40.7825 Y28.5392
G01 X40.7596 Y28.5239
G01 X40.6808 Y28.4655
G01 X40.6596 Y28.4480
G01 X40.5869 Y28.3821
G01 X40.5674 Y28.3627
G01 X40.5540 Y28.3478
G01 X37.1120 Y28.3478
G01 X30.9323 Y34.5276
G01 X30.9323 Y40.7670
G01 X30.9320 Y40.7807
G01 X30.9291 Y40.8396
G01 X30.9264 Y40.8669
G01 X30.9177 Y40.9252
G01 X30.9124 Y40.9521
G01 X30.8981 Y41.0093
G01 X30.8901 Y41.0356
G01 X30.8702 Y41.0911
G01 X30.8597 Y41.1164
G01 X30.8345 Y41.1697
G01 X30.8216 Y41.1939
G01 X30.7913 Y41.2445
G01 X30.7760 Y41.2673
G01 X30.7409 Y41.3146
G01 X30.7235 Y41.3359
G01 X30.6839 Y41.3795
G01 X30.6745 Y41.3895
G01 X28.7695 Y43.2945
G01 X28.7595 Y43.3039
G01 X28.7159 Y43.3435
G01 X28.6946 Y43.3609
G01 X28.6473 Y43.3960
G01 X28.6245 Y43.4113
G01 X28.5739 Y43.4416
G01 X28.5497 Y43.4545
G01 X28.4964 Y43.4797
G01 X28.4711 Y43.4902
G01 X28.4156 Y43.5101
G01 X28.3893 Y43.5181
G01 X28.3321 Y43.5324
G01 X28.3052 Y43.5377
G01 X28.2469 Y43.5464
G01 X28.2196 Y43.5491
G01 X28.1607 Y43.5520
G01 X28.1470 Y43.5523
G01 X19.6024 Y43.5523
G01 X19.5887 Y43.5520
G01 X19.5298 Y43.5491
G01 X19.5025 Y43.5464
G01 X19.4442 Y43.5377
G01 X19.4173 Y43.5324
G01 X19.3601 Y43.5181
G01 X19.3338 Y43.5101
G01 X19.2784 Y43.4902
G01 X19.2530 Y43.4797
G01 X19.1997 Y43.4545
G01 X19.1755 Y43.4416
G01 X19.1250 Y43.4113
G01 X19.1021 Y43.3960
G01 X19.0548 Y43.3609
G01 X19.0335 Y43.3435
G01 X18.9899 Y43.3039
G01 X18.9799 Y43.2945
G01 X13.7942 Y38.1087
G01 X13.7742 Y38.1097
G01 X13.7467 Y38.1097
G01 X13.6487 Y38.1048
G01 X13.6213 Y38.1022
G01 X13.5243 Y38.0878
G01 X13.4973 Y38.0824
G01 X13.4021 Y38.0585
G01 X13.3758 Y38.0506
G01 X13.2834 Y38.0175
G01 X13.2580 Y38.0070
G01 X13.1693 Y37.9650
G01 X13.1451 Y37.9521
G01 X13.0609 Y37.9016
G01 X13.0381 Y37.8864
G01 X12.9593 Y37.8279
G01 X12.9380 Y37.8105
G01 X12.8653 Y37.7446
G01 X12.8459 Y37.7251
G01 X12.7800 Y37.6524
G01 X12.7625 Y37.6312
G01 X12.7041 Y37.5524
G01 X12.6888 Y37.5295
G01 X12.6384 Y37.4453
G01 X12.6254 Y37.4211
G01 X12.5834 Y37.3324
G01 X12.5729 Y37.3070
G01 X12.5399 Y37.2146
G01 X12.5319 Y37.1883
G01 X12.5080 Y37.0931
G01 X12.5027 Y37.0662
G01 X12.4883 Y36.9691
G01 X12.4856 Y36.9418
G01 X12.4808 Y36.8437
G01 X12.4808 Y36.8163
G01 X12.4818 Y36.7963
G01 X9.4905 Y33.8049
G01 X9.4810 Y33.7950
G01 X9.4414 Y33.7513
G01 X9.4240 Y33.7301
G01 X9.3889 Y33.6827
G01 X9.3736 Y33.6599
G01 X9.3434 Y33.6094
G01 X9.3304 Y33.5851
G01 X9.3052 Y33.5319
G01 X9.2947 Y33.5065
G01 X9.2749 Y33.4510
G01 X9.2669 Y33.4247
G01 X9.2526 Y33.3676
G01 X9.2472 Y33.3406
G01 X9.2386 Y33.2824
G01 X9.2359 Y33.2550
G01 X9.2330 Y33.1962
G01 X9.2326 Y33.1824
G01 X9.2326 Y9.6910
G00 Z2.0000
G00 X9.4126 Y9.6111
G01 F60.00
G01 Z-0.0900
G01 F120.00
G01 X9.3387 Y9.5442
G01 X9.3317 Y9.5372
G01 X9.2658 Y9.4645
G01 X9.2596 Y9.4569
G01 X9.2011 Y9.3781
G01 X9.1957 Y9.3700
G01 X9.1452 Y9.2858
G01 X9.1406 Y9.2771
G01 X9.0986 Y9.1884
G01 X9.0949 Y9.1793
G01 X9.0618 Y9.0869
G01 X9.0590 Y9.0776
G01 X9.0351 Y8.9824
G01 X9.0332 Y8.9727
G01 X9.0188 Y8.8757
G01 X9.0179 Y8.8659
G01 X9.0130 Y8.7679
G01 X9.0130 Y8.7581
G01 X9.0179 Y8.6600
G01 X9.0188 Y8.6503
G01 X9.0332 Y8.5532
G01 X9.0351 Y8.5436
G01 X9.0590 Y8.4484
G01 X9.0618 Y8.4390
G01 X9.0949 Y8.3466
G01 X9.0986 Y8.3375
G01 X9.1406 Y8.2488
G01 X9.1452 Y8.2402
G01 X9.1957 Y8.1560
G01 X9.2011 Y8.1478
G01 X9.2596 Y8.0690
G01 X9.2658 Y8.0614
G01 X9.3317 Y7.9887
G01 X9.3387 Y7.9818
G01 X9.4114 Y7.9159
G01 X9.4190 Y7.9096
G01 X9.4978 Y7.8512
G01 X9.5059 Y7.8457
G01 X9.5901 Y7.7953
G01 X9.5988 Y7.7906
G01 X9.6875 Y7.7487
G01 X9.6965 Y7.7449
G01 X9.7889 Y7.7119
G01 X9.7983 Y7.7090
G01 X9.8935 Y7.6852
G01 X9.9032 Y7.6833
G01 X10.0002 Y7.6689
G01 X10.0100 Y7.6679
G01 X10.1080 Y7.6631
G01 X10.1178 Y7.6631
G01 X10.2158 Y7.6679
G01 X10.2256 Y7.6689
G01 X10.3227 Y7.6833
G01 X10.3323 Y7.6852
G01 X10.4275 Y7.7090
G01 X10.4369 Y7.7119
G01 X10.5293 Y7.7449
G01 X10.5384 Y7.7487
G01 X10.6271 Y7.7906
G01 X10.6357 Y7.7953
G01 X10.7199 Y7.8457
G01 X10.7281 Y7.8512
G01 X10.8069 Y7.9096
G01 X10.8145 Y7.9159
G01 X10.8872 Y7.9818
G01 X10.8941 Y7.9887
G01 X10.9600 Y8.0614
G01 X10.9663 Y8.0690
G01 X11.0247 Y8.1478
G01 X11.0302 Y8.1560
G01 X11.0806 Y8.2402
G01 X11.0852 Y8.2488
G01 X11.1272 Y8.3375
G01 X11.1310 Y8.3466
G01 X11.1640 Y8.4390
G01 X11.1669 Y8.4484
G01 X11.1907 Y8.5436
G01 X11.1926 Y8.5532
G01 X11.2070 Y8.6503
G01 X11.2080 Y8.6600
G01 X11.2128 Y8.7581
G01 X11.2128 Y8.7679
G01 X11.2080 Y8.8659
G01 X11.2070 Y8.8757
G01 X11.1926 Y8.9727
G01 X11.1907 Y8.9824
G01 X11.1669 Y9.0776
G01 X11.1640 Y9.0869
G01 X11.1310 Y9.1793
G01 X11.1272 Y9.1884
G01 X11.0852 Y9.2771
G01 X11.0806 Y9.2858
G01 X11.0302 Y9.3700
G01 X11.0247 Y9.3781
G01 X10.9663 Y9.4569
G01 X10.9600 Y9.4645
G01 X10.8941 Y9.5372
G01 X10.8872 Y9.5442
G01 X10.8132 Y9.6111
G01 X10.8132 Y32.8924
G01 X13.6559 Y35.7351
G01 X13.7555 Y35.7301
G01 X13.7653 Y35.7301
G01 X13.8634 Y35.7349
G01 X13.8731 Y35.7359
G01 X13.9702 Y35.7503
G01 X13.9798 Y35.7522
G01 X14.0750 Y35.7761
G01 X14.0844 Y35.7789
G01 X14.1768 Y35.8120
G01 X14.1859 Y35.8157
G01 X14.2746 Y35.8577
G01 X14.2832 Y35.8623
G01 X14.3674 Y35.9128
G01 X14.3756 Y35.9182
G01 X14.4544 Y35.9767
G01 X14.4620 Y35.9829
G01 X14.5347 Y36.0488
G01 X14.5416 Y36.0557
G01 X14.6075 Y36.1285
G01 X14.6138 Y36.1360
G01 X14.6722 Y36.2149
G01 X14.6777 Y36.2230
G01 X14.7281 Y36.3072
G01 X14.7328 Y36.3158
G01 X14.7747 Y36.4046
G01 X14.7785 Y36.4136
G01 X14.8115 Y36.5060
G01 X14.8144 Y36.5154
G01 X14.8382 Y36.6106
G01 X14.8401 Y36.6202
G01 X14.8545 Y36.7173
G01 X14.8555 Y36.7271
G01 X14.8603 Y36.8251
G01 X14.8603 Y36.8349
G01 X14.8553 Y36.9346
G01 X19.8925 Y41.9717
G01 X27.8569 Y41.9717
G01 X29.3517 Y40.4769
G01 X29.3518 Y34.1581
G01 X29.3547 Y34.0993
G01 X29.3557 Y34.0895
G01 X29.3643 Y34.0312
G01 X29.3662 Y34.0216
G01 X29.3805 Y33.9644
G01 X29.3834 Y33.9551
G01 X29.4032 Y33.8996
G01 X29.4070 Y33.8905
G01 X29.4322 Y33.8373
G01 X29.4368 Y33.8286
G01 X29.4671 Y33.7781
G01 X29.4725 Y33.7699
G01 X29.5076 Y33.7226
G01 X29.5139 Y33.7150
G01 X29.5568 Y33.6678
G01 X36.2522 Y26.9723
G01 X36.2994 Y26.9294
G01 X36.3070 Y26.9232
G01 X36.3543 Y26.8881
G01 X36.3625 Y26.8826
G01 X36.4130 Y26.8523
G01 X36.4217 Y26.8477
G01 X36.4749 Y26.8225
G01 X36.4840 Y26.8188
G01 X36.5395 Y26.7989
G01 X36.5489 Y26.7961
G01 X36.6060 Y26.7818
G01 X36.6156 Y26.7798
G01 X36.6739 Y26.7712
G01 X36.6837 Y26.7702
G01 X36.7474 Y26.7672
G01 X40.6339 Y26.7672
G01 X40.7008 Y26.6933
G01 X40.7077 Y26.6863
G01 X40.7805 Y26.6204
G01 X40.7880 Y26.6142
G01 X40.8669 Y26.5558
G01 X40.8750 Y26.5503
G01 X40.9592 Y26.4999
G01 X40.9678 Y26.4952
G01 X41.0566 Y26.4533
G01 X41.0656 Y26.4495
G01 X41.1580 Y26.4165
G01 X41.1674 Y26.4136
G01 X41.2626 Y26.3898
G01 X41.2722 Y26.3878
G01 X41.3693 Y26.3734
G01 X41.3791 Y26.3725
G01 X41.4771 Y26.3677
G01 X41.4869 Y26.3677
G01 X41.5849 Y26.3725
G01 X41.5947 Y26.3734
G01 X41.6918 Y26.3878
G01 X41.7014 Y26.3898
G01 X41.7966 Y26.4136
G01 X41.8060 Y26.4165
G01 X41.8984 Y26.4495
G01 X41.9074 Y26.4533
G01 X41.9962 Y26.4952
G01 X42.0048 Y26.4999
G01 X42.0890 Y26.5503
G01 X42.0971 Y26.5558
G01 X42.1760 Y26.6142
G01 X42.1835 Y26.6204
G01 X42.2563 Y26.6863
G01 X42.2632 Y26.6933
G01 X42.3291 Y26.7660
G01 X42.3353 Y26.7736
G01 X42.3938 Y26.8524
G01 X42.3992 Y26.8606
G01 X42.4497 Y26.9447
G01 X42.4543 Y26.9534
G01 X42.4963 Y27.0421
G01 X42.5000 Y27.0512
G01 X42.5331 Y27.1436
G01 X42.5359 Y27.1530
G01 X42.5598 Y27.2482
G01 X42.5617 Y27.2578
G01 X42.5761 Y27.3549
G01 X42.5771 Y27.3646
G01 X42.5819 Y27.4626
G01 X42.5819 Y27.4725
G01 X42.5771 Y27.5705
G01 X42.5761 Y27.5802
G01 X42.5617 Y27.6773
G01 X42.5598 Y27.6869
G01 X42.5359 Y27.7821
G01 X42.5331 Y27.7915
G01 X42.5000 Y27.8839
G01 X42.4963 Y27.8930
G01 X42.4543 Y27.9817
G01 X42.4497 Y27.9904
G01 X42.3992 Y28.0745
G01 X42.3938 Y28.0827
G01 X42.3353 Y28.1615
G01 X42.3291 Y28.1691
G01 X42.2632 Y28.2418
G01 X42.2563 Y28.2488
G01 X42.1835 Y28.3147
G01 X42.1760 Y28.3209
G01 X42.0971 Y28.3793
G01 X42.0890 Y28.3848
G01 X42.0048 Y28.4352
G01 X41.9962 Y28.4399
G01 X41.9074 Y28.4818
G01 X41.8984 Y28.4856
G01 X41.8060 Y28.5186
G01 X41.7966 Y28.5215
G01 X41.7014 Y28.5453
G01 X41.6918 Y28.5473
G01 X41.5947 Y28.5617
G01 X41.5849 Y28.5626
G01 X41.4869 Y28.5674
G01 X41.4771 Y28.5674
G01 X41.3791 Y28.5626
G01 X41.3693 Y28.5617
G01 X41.2722 Y28.5473
G01 X41.2626 Y28.5453
G01 X41.1674 Y28.5215
G01 X41.1580 Y28.5186
G01 X41.0656 Y28.4856
G01 X41.0566 Y28.4818
G01 X40.9678 Y28.4399
G01 X40.9592 Y28.4352
G01 X40.8750 Y28.3848
G01 X40.8669 Y28.3793
G01 X40.7880 Y28.3209
G01 X40.7805 Y28.3147
G01 X40.7077 Y28.2488
G01 X40.7008 Y28.2418
G01 X40.6339 Y28.1678
G01 X37.0375 Y28.1678
G01 X30.7523 Y34.4531
G01 X30.7523 Y40.7670
G01 X30.7493 Y40.8307
G01 X30.7483 Y40.8405
G01 X30.7397 Y40.8988
G01 X30.7378 Y40.9084
G01 X30.7235 Y40.9656
G01 X30.7206 Y40.9749
G01 X30.7008 Y41.0304
G01 X30.6970 Y41.0395
G01 X30.6718 Y41.0927
G01 X30.6672 Y41.1014
G01 X30.6369 Y41.1519
G01 X30.6315 Y41.1601
G01 X30.5964 Y41.2074
G01 X30.5901 Y41.2150
G01 X30.5472 Y41.2622
G01 X28.6422 Y43.1672
G01 X28.5950 Y43.2101
G01 X28.5874 Y43.2164
G01 X28.5401 Y43.2515
G01 X28.5319 Y43.2569
G01 X28.4814 Y43.2872
G01 X28.4727 Y43.2918
G01 X28.4195 Y43.3170
G01 X28.4104 Y43.3208
G01 X28.3549 Y43.3406
G01 X28.3456 Y43.3435
G01 X28.2884 Y43.3578
G01 X28.2788 Y43.3597
G01 X28.2205 Y43.3683
G01 X28.2107 Y43.3693
G01 X28.1470 Y43.3723
G01 X19.6024 Y43.3723
G01 X19.5387 Y43.3693
G01 X19.5289 Y43.3683
G01 X19.4706 Y43.3597
G01 X19.4610 Y43.3578
G01 X19.4039 Y43.3435
G01 X19.3945 Y43.3406
G01 X19.3390 Y43.3208
G01 X19.3299 Y43.3170
G01 X19.2767 Y43.2918
G01 X19.2680 Y43.2872
G01 X19.2175 Y43.2569
G01 X19.2093 Y43.2515
G01 X19.1620 Y43.2164
G01 X19.1544 Y43.2101
G01 X19.1072 Y43.1672
G01 X13.8649 Y37.9249
G01 X13.7653 Y37.9299
G01 X13.7555 Y37.9299
G01 X13.6575 Y37.9251
G01 X13.6477 Y37.9241
G01 X13.5507 Y37.9097
G01 X13.5411 Y37.9078
G01 X13.4459 Y37.8839
G01 X13.4365 Y37.8811
G01 X13.3441 Y37.8480
G01 X13.3350 Y37.8443
G01 X13.2463 Y37.8023
G01 X13.2376 Y37.7977
G01 X13.1535 Y37.7472
G01 X13.1453 Y37.7418
G01 X13.0665 Y37.6833
G01 X13.0589 Y37.6771
G01 X12.9862 Y37.6112
G01 X12.9792 Y37.6043
G01 X12.9133 Y37.5315
G01 X12.9071 Y37.5240
G01 X12.8486 Y37.4451
G01 X12.8432 Y37.4370
G01 X12.7927 Y37.3528
G01 X12.7881 Y37.3442
G01 X12.7462 Y37.2554
G01 X12.7424 Y37.2464
G01 X12.7093 Y37.1540
G01 X12.7065 Y37.1446
G01 X12.6827 Y37.0494
G01 X12.6807 Y37.0398
G01 X12.6663 Y36.9427
G01 X12.6654 Y36.9329
G01 X12.6606 Y36.8349
G01 X12.6606 Y36.8251
G01 X12.6655 Y36.7255
G01 X9.6177 Y33.6776
G01 X9.5748 Y33.6304
G01 X9.5686 Y33.6228
G01 X9.5335 Y33.5755
G01 X9.5280 Y33.5674
G01 X9.4977 Y33.5168
G01 X9.4931 Y33.5082
G01 X9.4679 Y33.4549
G01 X9.4642 Y33.4459
G01 X9.4443 Y33.3904
G01 X9.4415 Y33.3810
G01 X9.4272 Y33.3239
G01 X9.4253 Y33.3142
G01 X9.4166 Y33.2560
G01 X9.4157 Y33.2462
G01 X9.4126 Y33.1824
G01 X9.4126 Y9.6111
G00 Z2.0000
G00 X13.7726 Y9.8996
G01 F60.00
G01 Z-0.0900
G01 F120.00
G01 X13.7613 Y9.8858
G01 X13.7028 Y9.8070
G01 X13.6581 Y9.7401
G01 X13.6077 Y9.6559
G01 X13.5697 Y9.5850
G01 X13.5278 Y9.4962
G01 X13.4970 Y9.4219
G01 X13.4639 Y9.3295
G01 X13.4406 Y9.2525
G01 X13.4167 Y9.1573
G01 X13.4010 Y9.0784
G01 X13.3866 Y8.9813
G01 X13.3787 Y8.9012
G01 X13.3739 Y8.8032
G01 X13.3739 Y8.7227
G01 X13.3787 Y8.6247
G01 X13.3866 Y8.5446
G01 X13.4010 Y8.4476
G01 X13.4167 Y8.3686
G01 X13.4406 Y8.2734
G01 X13.4639 Y8.1964
G01 X13.4970 Y8.1040
G01 X13.5278 Y8.0297
G01 X13.5697 Y7.9410
G01 X13.6077 Y7.8700
G01 X13.6581 Y7.7858
G01 X13.7028 Y7.7189
G01 X13.7613 Y7.6401
G01 X13.7726 Y7.6263
G01 X13.7726 Y6.8581
G01 X13.7736 Y6.8179
G01 X13.7764 Y6.7590
G01 X13.7843 Y6.6790
G01 X13.7930 Y6.6207
G01 X13.8087 Y6.5418
G01 X13.8230 Y6.4846
G01 X13.8464 Y6.4076
G01 X13.8662 Y6.3521
G01 X13.8970 Y6.2778
G01 X13.9222 Y6.2245
G01 X13.9601 Y6.1536
G01 X13.9904 Y6.1030
G01 X14.0351 Y6.0361
G01 X14.0702 Y5.9888
G01 X14.1213 Y5.9266
G01 X14.1608 Y5.8830
G01 X14.1886 Y5.8538
G01 X17.1097 Y2.9327
G01 X17.1388 Y2.9049
G01 X17.1825 Y2.8654
G01 X17.2447 Y2.8143
G01 X17.2920 Y2.7792
G01 X17.3589 Y2.7345
G01 X17.4095 Y2.7042
G01 X17.4804 Y2.6663
G01 X17.5337 Y2.6411
G01 X17.6080 Y2.6103
G01 X17.6635 Y2.5905
G01 X17.7405 Y2.5671
G01 X17.7976 Y2.5528
G01 X17.8766 Y2.5371
G01 X17.9348 Y2.5285
G01 X18.0149 Y2.5206
G01 X18.0738 Y2.5177
G01 X18.1140 Y2.5167
G01 X29.2900 Y2.5167
G01 X29.3302 Y2.5177
G01 X29.3891 Y2.5206
G01 X29.4692 Y2.5285
G01 X29.5274 Y2.5371
G01 X29.6064 Y2.5528
G01 X29.6635 Y2.5671
G01 X29.7405 Y2.5905
G01 X29.7960 Y2.6103
G01 X29.8703 Y2.6411
G01 X29.9236 Y2.6663
G01 X29.9945 Y2.7042
G01 X30.0451 Y2.7345
G01 X30.1120 Y2.7792
G01 X30.1593 Y2.8143
G01 X30.2215 Y2.8654
G01 X30.2652 Y2.9049
G01 X30.2943 Y2.9327
G01 X32.0367 Y4.6751
G01 X32.0645 Y4.7043
G01 X32.1040 Y4.7479
G01 X32.1551 Y4.8101
G01 X32.1902 Y4.8574
G01 X32.2349 Y4.9243
G01 X32.2652 Y4.9749
G01 X32.3031 Y5.0458
G01 X32.3283 Y5.0991
G01 X32.3591 Y5.1734
G01 X32.3789 Y5.2289
G01 X32.4023 Y5.3059
G01 X32.4166 Y5.3631
G01 X32.4323 Y5.4420
G01 X32.4409 Y5.5003
G01 X32.4488 Y5.5803
G01 X32.4517 Y5.6392
G01 X32.4527 Y5.6794
G01 X32.4527 Y7.0887
G01 X33.0644 Y7.0887
G01 X33.1046 Y7.0897
G01 X33.1635 Y7.0926
G01 X33.2436 Y7.1005
G01 X33.3018 Y7.1091
G01 X33.3808 Y7.1248
G01 X33.4379 Y7.1391
G01 X33.5149 Y7.1625
G01 X33.5704 Y7.1823
G01 X33.6447 Y7.2131
G01 X33.6980 Y7.2383
G01 X33.7690 Y7.2762
G01 X33.8195 Y7.3065
G01 X33.8864 Y7.3512
G01 X33.9337 Y7.3863
G01 X33.9959 Y7.4374
G01 X34.0396 Y7.4769
G01 X34.0687 Y7.5047
G01 X41.6826 Y15.1185
G01 X41.7003 Y15.1202
G01 X41.7974 Y15.1346
G01 X41.8763 Y15.1503
G01 X41.9715 Y15.1742
G01 X42.0485 Y15.1975
G01 X42.1409 Y15.2306
G01 X42.2153 Y15.2614
G01 X42.3040 Y15.3034
G01 X42.3750 Y15.3413
G01 X42.4591 Y15.3917
G01 X42.5260 Y15.4365
G01 X42.6049 Y15.4949
G01 X42.6671 Y15.5460
G01 X42.7398 Y15.6119
G01 X42.7967 Y15.6688
G01 X42.8626 Y15.7415
G01 X42.9136 Y15.8037
G01 X42.9721 Y15.8825
G01 X43.0168 Y15.9494
G01 X43.0673 Y16.0336
G01 X43.1052 Y16.1046
G01 X43.1472 Y16.1933
G01 X43.1779 Y16.2676
G01 X43.2110 Y16.3600
G01 X43.2344 Y16.4370
G01 X43.2582 Y16.5322
G01 X43.2739 Y16.6111
G01 X43.2883 Y16.7082
G01 X43.2962 Y16.7883
G01 X43.3010 Y16.8863
G01 X43.3010 Y16.9668
G01 X43.2962 Y17.0648
G01 X43.2883 Y17.1449
G01 X43.2739 Y17.2420
G01 X43.2582 Y17.3209
G01 X43.2344 Y17.4161
G01 X43.2110 Y17.4931
G01 X43.1779 Y17.5855
G01 X43.1472 Y17.6598
G01 X43.1052 Y17.7485
G01 X43.0673 Y17.8195
G01 X43.0168 Y17.9037
G01 X42.9721 Y17.9706
G01 X42.9136 Y18.0494
G01 X42.8626 Y18.1116
G01 X42.7967 Y18.1843
G01 X42.7398 Y18.2412
G01 X42.6671 Y18.3071
G01 X42.6049 Y18.3582
G01 X42.5260 Y18.4166
G01 X42.4591 Y18.4614
G01 X42.3750 Y18.5118
G01 X42.3040 Y18.5497
G01 X42.2153 Y18.5917
G01 X42.1409 Y18.6225
G01 X42.0485 Y18.6556
G01 X41.9715 Y18.6789
G01 X41.8763 Y18.7028
G01 X41.7974 Y18.7185
G01 X41.7003 Y18.7329
G01 X41.6203 Y18.7407
G01 X41.5222 Y18.7456
G01 X41.4418 Y18.7456
G01 X41.3437 Y18.7407
G01 X41.2637 Y18.7329
G01 X41.1666 Y18.7185
G01 X41.0877 Y18.7028
G01 X40.9925 Y18.6789
G01 X40.9155 Y18.6556
G01 X40.8231 Y18.6225
G01 X40.7487 Y18.5917
G01 X40.6600 Y18.5497
G01 X40.5890 Y18.5118
G01 X40.5049 Y18.4614
G01 X40.4380 Y18.4166
G01 X40.3591 Y18.3582
G01 X40.2969 Y18.3071
G01 X40.2242 Y18.2412
G01 X40.1673 Y18.1843
G01 X40.1014 Y18.1116
G01 X40.0504 Y18.0494
G01 X39.9919 Y17.9706
G01 X39.9472 Y17.9037
G01 X39.8967 Y17.8195
G01 X39.8588 Y17.7485
G01 X39.8168 Y17.6598
G01 X39.7861 Y17.5855
G01 X39.7530 Y17.4931
G01 X39.7296 Y17.4161
G01 X39.7058 Y17.3209
G01 X39.6901 Y17.2420
G01 X39.6757 Y17.1449
G01 X39.6739 Y17.1271
G01 X32.4761 Y9.9293
G01 X32.1691 Y9.9293
G01 X32.1553 Y9.9406
G01 X32.0765 Y9.9991
G01 X32.0096 Y10.0438
G01 X31.9254 Y10.0943
G01 X31.8544 Y10.1322
G01 X31.7657 Y10.1742
G01 X31.6914 Y10.2049
G01 X31.5990 Y10.2380
G01 X31.5220 Y10.2614
G01 X31.4268 Y10.2852
G01 X31.3478 Y10.3009
G01 X31.2508 Y10.3153
G01 X31.1707 Y10.3232
G01 X31.0727 Y10.3280
G01 X30.9922 Y10.3280
G01 X30.8942 Y10.3232
G01 X30.8141 Y10.3153
G01 X30.7170 Y10.3009
G01 X30.6381 Y10.2852
G01 X30.5429 Y10.2614
G01 X30.4659 Y10.2380
G01 X30.3735 Y10.2049
G01 X30.2992 Y10.1742
G01 X30.2104 Y10.1322
G01 X30.1395 Y10.0943
G01 X30.0553 Y10.0438
G01 X29.9884 Y9.9991
G01 X29.9096 Y9.9406
G01 X29.8474 Y9.8896
G01 X29.7746 Y9.8237
G01 X29.7177 Y9.7668
G01 X29.6518 Y9.6941
G01 X29.6008 Y9.6319
G01 X29.5423 Y9.5530
G01 X29.4976 Y9.4861
G01 X29.4472 Y9.4020
G01 X29.4092 Y9.3310
G01 X29.3673 Y9.2423
G01 X29.3365 Y9.1679
G01 X29.3034 Y9.0755
G01 X29.2801 Y8.9985
G01 X29.2562 Y8.9033
G01 X29.2405 Y8.8244
G01 X29.2261 Y8.7273
G01 X29.2182 Y8.6473
G01 X29.2134 Y8.5492
G01 X29.2134 Y8.4688
G01 X29.2182 Y8.3707
G01 X29.2261 Y8.2907
G01 X29.2405 Y8.1936
G01 X29.2562 Y8.1147
G01 X29.2801 Y8.0195
G01 X29.3034 Y7.9425
G01 X29.3365 Y7.8501
G01 X29.3673 Y7.7757
G01 X29.4092 Y7.6870
G01 X29.4472 Y7.6160
G01 X29.4976 Y7.5319
G01 X29.5423 Y7.4650
G01 X29.6008 Y7.3861
G01 X29.6121 Y7.3723
G01 X29.6121 Y6.2677
G01 X28.7017 Y5.3573
G01 X18.7023 Y5.3573
G01 X16.6132 Y7.4464
G01 X16.6132 Y7.6262
G01 X16.6246 Y7.6401
G01 X16.6830 Y7.7189
G01 X16.7277 Y7.7858
G01 X16.7782 Y7.8700
G01 X16.8161 Y7.9410
G01 X16.8581 Y8.0297
G01 X16.8889 Y8.1040
G01 X16.9219 Y8.1964
G01 X16.9453 Y8.2734
G01 X16.9691 Y8.3686
G01 X16.9848 Y8.4476
G01 X16.9992 Y8.5446
G01 X17.0071 Y8.6247
G01 X17.0119 Y8.7227
G01 X17.0119 Y8.8032
G01 X17.0071 Y8.9012
G01 X16.9992 Y8.9813
G01 X16.9848 Y9.0784
G01 X16.9691 Y9.1573
G01 X16.9453 Y9.2525
G01 X16.9219 Y9.3295
G01 X16.8889 Y9.4219
G01 X16.8581 Y9.4962
G01 X16.8161 Y9.5850
G01 X16.7782 Y9.6559
G01 X16.7277 Y9.7401
G01 X16.6830 Y9.8070
G01 X16.6246 Y9.8858
G01 X16.6132 Y9.8997
G01 X16.6132 Y32.0150
G01 X19.6201 Y35.0219
G01 X19.6379 Y35.0237
G01 X19.7350 Y35.0381
G01 X19.8139 Y35.0538
G01 X19.9091 Y35.0776
G01 X19.9861 Y35.1010
G01 X20.0785 Y35.1341
G01 X20.1528 Y35.1648
G01 X20.2416 Y35.2068
G01 X20.3125 Y35.2447
G01 X20.3967 Y35.2952
G01 X20.4636 Y35.3399
G01 X20.5424 Y35.3984
G01 X20.6046 Y35.4494
G01 X20.6773 Y35.5153
G01 X20.7342 Y35.5722
G01 X20.8002 Y35.6449
G01 X20.8512 Y35.7071
G01 X20.9097 Y35.7860
G01 X20.9544 Y35.8529
G01 X21.0048 Y35.9370
G01 X21.0428 Y36.0080
G01 X21.0847 Y36.0967
G01 X21.1155 Y36.1711
G01 X21.1486 Y36.2635
G01 X21.1719 Y36.3405
G01 X21.1958 Y36.4357
G01 X21.2115 Y36.5146
G01 X21.2259 Y36.6117
G01 X21.2338 Y36.6917
G01 X21.2386 Y36.7898
G01 X21.2386 Y36.8702
G01 X21.2338 Y36.9683
G01 X21.2259 Y37.0483
G01 X21.2115 Y37.1454
G01 X21.1958 Y37.2243
G01 X21.1719 Y37.3195
G01 X21.1486 Y37.3965
G01 X21.1155 Y37.4889
G01 X21.0847 Y37.5633
G01 X21.0428 Y37.6520
G01 X21.0048 Y37.7230
G01 X20.9544 Y37.8071
G01 X20.9097 Y37.8740
G01 X20.8512 Y37.9529
G01 X20.8002 Y38.0151
G01 X20.7342 Y38.0878
G01 X20.6773 Y38.1447
G01 X20.6046 Y38.2106
G01 X20.5424 Y38.2616
G01 X20.4636 Y38.3201
G01 X20.3967 Y38.3648
G01 X20.3125 Y38.4153
G01 X20.2416 Y38.4532
G01 X20.1528 Y38.4952
G01 X20.0785 Y38.5259
G01 X19.9861 Y38.5590
G01 X19.9091 Y38.5824
G01 X19.8139 Y38.6062
G01 X19.7350 Y38.6219
G01 X19.6379 Y38.6363
G01 X19.5578 Y38.6442
G01 X19.4598 Y38.6490
G01 X19.3793 Y38.6490
G01 X19.2813 Y38.6442
G01 X19.2012 Y38.6363
G01 X19.1042 Y38.6219
G01 X19.0252 Y38.6062
G01 X18.9300 Y38.5824
G01 X18.8530 Y38.5590
G01 X18.7606 Y38.5259
G01 X18.6863 Y38.4952
G01 X18.5976 Y38.4532
G01 X18.5266 Y38.4153
G01 X18.4424 Y38.3648
G01 X18.3755 Y38.3201
G01 X18.2967 Y38.2616
G01 X18.2345 Y38.2106
G01 X18.1618 Y38.1447
G01 X18.1049 Y38.0878
G01 X18.0390 Y38.0151
G01 X17.9879 Y37.9529
G01 X17.9295 Y37.8740
G01 X17.8848 Y37.8071
G01 X17.8343 Y37.7230
G01 X17.7964 Y37.6520
G01 X17.7544 Y37.5633
G01 X17.7236 Y37.4889
G01 X17.6906 Y37.3965
G01 X17.6672 Y37.3195
G01 X17.6433 Y37.2243
G01 X17.6277 Y37.1454
G01 X17.6133 Y37.0483
G01 X17.6115 Y37.0305
G01 X14.1886 Y33.6076
G01 X14.1608 Y33.5785
G01 X14.1213 Y33.5348
G01 X14.0702 Y33.4726
G01 X14.0351 Y33.4253
G01 X13.9904 Y33.3584
G01 X13.9601 Y33.3079
G01 X13.9222 Y33.2369
G01 X13.8970 Y33.1837
G01 X13.8662 Y33.1093
G01 X13.8464 Y33.0538
G01 X13.8230 Y32.9768
G01 X13.8087 Y32.9197
G01 X13.7930 Y32.8408
G01 X13.7843 Y32.7825
G01 X13.7764 Y32.7024
G01 X13.7736 Y32.6436
G01 X13.7726 Y32.6033
G01 X13.7726 Y9.8996
G00 Z2.0000
G00 X13.9526 Y9.8347
G01 F60.00
G01 Z-0.0900
G01 F120.00
G01 X13.9457 Y9.8272
G01 X13.9059 Y9.7786
G01 X13.8474 Y9.6998
G01 X13.8125 Y9.6476
G01 X13.7621 Y9.5634
G01 X13.7324 Y9.5080
G01 X13.6905 Y9.4193
G01 X13.6665 Y9.3613
G01 X13.6334 Y9.2689
G01 X13.6152 Y9.2088
G01 X13.5913 Y9.1136
G01 X13.5791 Y9.0520
G01 X13.5647 Y8.9549
G01 X13.5585 Y8.8924
G01 X13.5537 Y8.7944
G01 X13.5537 Y8.7316
G01 X13.5585 Y8.6335
G01 X13.5647 Y8.5710
G01 X13.5791 Y8.4740
G01 X13.5913 Y8.4124
G01 X13.6152 Y8.3172
G01 X13.6334 Y8.2571
G01 X13.6665 Y8.1647
G01 X13.6905 Y8.1067
G01 X13.7324 Y8.0179
G01 X13.7621 Y7.9625
G01 X13.8125 Y7.8784
G01 X13.8474 Y7.8262
G01 X13.9059 Y7.7473
G01 X13.9457 Y7.6988
G01 X13.9526 Y7.6912
G01 X13.9526 Y6.8581
G01 X13.9533 Y6.8267
G01 X13.9562 Y6.7679
G01 X13.9624 Y6.7054
G01 X13.9710 Y6.6471
G01 X13.9833 Y6.5855
G01 X13.9976 Y6.5284
G01 X14.0158 Y6.4683
G01 X14.0357 Y6.4128
G01 X14.0597 Y6.3548
G01 X14.0849 Y6.3015
G01 X14.1145 Y6.2461
G01 X14.1448 Y6.1956
G01 X14.1797 Y6.1434
G01 X14.2148 Y6.0960
G01 X14.2546 Y6.0475
G01 X14.2942 Y6.0038
G01 X14.3158 Y5.9811
G01 X17.2370 Y3.0600
G01 X17.2597 Y3.0383
G01 X17.3034 Y2.9988
G01 X17.3519 Y2.9589
G01 X17.3992 Y2.9238
G01 X17.4515 Y2.8889
G01 X17.5020 Y2.8586
G01 X17.5574 Y2.8290
G01 X17.6106 Y2.8038
G01 X17.6687 Y2.7798
G01 X17.7241 Y2.7600
G01 X17.7842 Y2.7417
G01 X17.8414 Y2.7274
G01 X17.9030 Y2.7152
G01 X17.9613 Y2.7065
G01 X18.0238 Y2.7004
G01 X18.0826 Y2.6975
G01 X18.1140 Y2.6967
G01 X29.2900 Y2.6967
G01 X29.3214 Y2.6975
G01 X29.3802 Y2.7004
G01 X29.4427 Y2.7065
G01 X29.5010 Y2.7152
G01 X29.5626 Y2.7274
G01 X29.6198 Y2.7417
G01 X29.6799 Y2.7600
G01 X29.7353 Y2.7798
G01 X29.7934 Y2.8038
G01 X29.8466 Y2.8290
G01 X29.9020 Y2.8586
G01 X29.9525 Y2.8889
G01 X30.0048 Y2.9238
G01 X30.0521 Y2.9589
G01 X30.1006 Y2.9988
G01 X30.1443 Y3.0383
G01 X30.1670 Y3.0600
G01 X31.9094 Y4.8024
G01 X31.9311 Y4.8251
G01 X31.9707 Y4.8688
G01 X32.0105 Y4.9173
G01 X32.0456 Y4.9647
G01 X32.0805 Y5.0169
G01 X32.1108 Y5.0674
G01 X32.1404 Y5.1228
G01 X32.1656 Y5.1760
G01 X32.1896 Y5.2341
G01 X32.2094 Y5.2895
G01 X32.2277 Y5.3496
G01 X32.2420 Y5.4068
G01 X32.2542 Y5.4684
G01 X32.2629 Y5.5267
G01 X32.2690 Y5.5892
G01 X32.2719 Y5.6480
G01 X32.2727 Y5.6794
G01 X32.2727 Y7.2687
G01 X33.0644 Y7.2687
G01 X33.0958 Y7.2695
G01 X33.1547 Y7.2724
G01 X33.2172 Y7.2785
G01 X33.2754 Y7.2872
G01 X33.3370 Y7.2994
G01 X33.3942 Y7.3137
G01 X33.4543 Y7.3320
G01 X33.5097 Y7.3518
G01 X33.5678 Y7.3758
G01 X33.6210 Y7.4010
G01 X33.6764 Y7.4306
G01 X33.7269 Y7.4609
G01 X33.7792 Y7.4958
G01 X33.8265 Y7.5309
G01 X33.8750 Y7.5708
G01 X33.9187 Y7.6103
G01 X33.9414 Y7.6320
G01 X41.6011 Y15.2916
G01 X41.6114 Y15.2921
G01 X41.6739 Y15.2983
G01 X41.7710 Y15.3127
G01 X41.8326 Y15.3249
G01 X41.9278 Y15.3488
G01 X41.9879 Y15.3670
G01 X42.0803 Y15.4001
G01 X42.1383 Y15.4241
G01 X42.2270 Y15.4661
G01 X42.2824 Y15.4957
G01 X42.3666 Y15.5461
G01 X42.4188 Y15.5810
G01 X42.4976 Y15.6395
G01 X42.5462 Y15.6793
G01 X42.6189 Y15.7452
G01 X42.6633 Y15.7896
G01 X42.7292 Y15.8624
G01 X42.7691 Y15.9109
G01 X42.8275 Y15.9897
G01 X42.8624 Y16.0420
G01 X42.9129 Y16.1261
G01 X42.9425 Y16.1815
G01 X42.9844 Y16.2702
G01 X43.0085 Y16.3283
G01 X43.0415 Y16.4207
G01 X43.0598 Y16.4808
G01 X43.0836 Y16.5760
G01 X43.0959 Y16.6376
G01 X43.1103 Y16.7346
G01 X43.1164 Y16.7971
G01 X43.1212 Y16.8951
G01 X43.1212 Y16.9580
G01 X43.1164 Y17.0560
G01 X43.1103 Y17.1185
G01 X43.0959 Y17.2155
G01 X43.0836 Y17.2771
G01 X43.0598 Y17.3723
G01 X43.0415 Y17.4324
G01 X43.0085 Y17.5248
G01 X42.9844 Y17.5829
G01 X42.9425 Y17.6716
G01 X42.9129 Y17.7270
G01 X42.8624 Y17.8111
G01 X42.8275 Y17.8634
G01 X42.7691 Y17.9422
G01 X42.7292 Y17.9907
G01 X42.6633 Y18.0635
G01 X42.6189 Y18.1079
G01 X42.5462 Y18.1738
G01 X42.4976 Y18.2136
G01 X42.4188 Y18.2721
G01 X42.3666 Y18.3070
G01 X42.2824 Y18.3574
G01 X42.2270 Y18.3870
G01 X42.1383 Y18.4290
G01 X42.0803 Y18.4530
G01 X41.9879 Y18.4861
G01 X41.9278 Y18.5043
G01 X41.8326 Y18.5282
G01 X41.7710 Y18.5404
G01 X41.6739 Y18.5548
G01 X41.6114 Y18.5610
G01 X41.5134 Y18.5658
G01 X41.4506 Y18.5658
G01 X41.3526 Y18.5610
G01 X41.2901 Y18.5548
G01 X41.1930 Y18.5404
G01 X41.1314 Y18.5282
G01 X41.0362 Y18.5043
G01 X40.9761 Y18.4861
G01 X40.8837 Y18.4530
G01 X40.8257 Y18.4290
G01 X40.7370 Y18.3870
G01 X40.6816 Y18.3574
G01 X40.5974 Y18.3070
G01 X40.5452 Y18.2721
G01 X40.4664 Y18.2136
G01 X40.4178 Y18.1738
G01 X40.3451 Y18.1079
G01 X40.3007 Y18.0635
G01 X40.2348 Y17.9907
G01 X40.1949 Y17.9422
G01 X40.1365 Y17.8634
G01 X40.1016 Y17.8111
G01 X40.0511 Y17.7270
G01 X40.0215 Y17.6716
G01 X39.9796 Y17.5829
G01 X39.9555 Y17.5248
G01 X39.9225 Y17.4324
G01 X39.9042 Y17.3723
G01 X39.8804 Y17.2771
G01 X39.8681 Y17.2155
G01 X39.8537 Y17.1185
G01 X39.8476 Y17.0560
G01 X39.8471 Y17.0457
G01 X32.5507 Y9.7493
G01 X32.1043 Y9.7493
G01 X32.0966 Y9.7562
G01 X32.0481 Y9.7961
G01 X31.9692 Y9.8545
G01 X31.9170 Y9.8894
G01 X31.8329 Y9.9399
G01 X31.7775 Y9.9695
G01 X31.6887 Y10.0114
G01 X31.6307 Y10.0355
G01 X31.5383 Y10.0685
G01 X31.4782 Y10.0868
G01 X31.3830 Y10.1106
G01 X31.3214 Y10.1229
G01 X31.2244 Y10.1373
G01 X31.1619 Y10.1434
G01 X31.0638 Y10.1482
G01 X31.0010 Y10.1482
G01 X30.9030 Y10.1434
G01 X30.8405 Y10.1373
G01 X30.7434 Y10.1229
G01 X30.6818 Y10.1106
G01 X30.5866 Y10.0868
G01 X30.5265 Y10.0685
G01 X30.4341 Y10.0355
G01 X30.3761 Y10.0114
G01 X30.2874 Y9.9695
G01 X30.2320 Y9.9399
G01 X30.1478 Y9.8894
G01 X30.0956 Y9.8545
G01 X30.0168 Y9.7961
G01 X29.9682 Y9.7562
G01 X29.8955 Y9.6903
G01 X29.8511 Y9.6459
G01 X29.7852 Y9.5732
G01 X29.7454 Y9.5246
G01 X29.6869 Y9.4458
G01 X29.6520 Y9.3936
G01 X29.6016 Y9.3094
G01 X29.5720 Y9.2540
G01 X29.5300 Y9.1653
G01 X29.5060 Y9.1073
G01 X29.4729 Y9.0149
G01 X29.4547 Y8.9548
G01 X29.4308 Y8.8596
G01 X29.4186 Y8.7980
G01 X29.4042 Y8.7009
G01 X29.3980 Y8.6384
G01 X29.3932 Y8.5404
G01 X29.3932 Y8.4776
G01 X29.3980 Y8.3796
G01 X29.4042 Y8.3171
G01 X29.4186 Y8.2200
G01 X29.4308 Y8.1584
G01 X29.4547 Y8.0632
G01 X29.4729 Y8.0031
G01 X29.5060 Y7.9107
G01 X29.5300 Y7.8527
G01 X29.5720 Y7.7640
G01 X29.6016 Y7.7086
G01 X29.6520 Y7.6244
G01 X29.6869 Y7.5722
G01 X29.7454 Y7.4934
G01 X29.7852 Y7.4448
G01 X29.7921 Y7.4372
G01 X29.7921 Y6.1932
G01 X28.7763 Y5.1773
G01 X18.6277 Y5.1773
G01 X16.4332 Y7.3719
G01 X16.4332 Y7.6911
G01 X16.4401 Y7.6988
G01 X16.4800 Y7.7473
G01 X16.5384 Y7.8262
G01 X16.5733 Y7.8784
G01 X16.6238 Y7.9625
G01 X16.6534 Y8.0179
G01 X16.6954 Y8.1067
G01 X16.7194 Y8.1647
G01 X16.7524 Y8.2571
G01 X16.7707 Y8.3172
G01 X16.7945 Y8.4124
G01 X16.8068 Y8.4740
G01 X16.8212 Y8.5710
G01 X16.8273 Y8.6335
G01 X16.8321 Y8.7316
G01 X16.8321 Y8.7944
G01 X16.8273 Y8.8924
G01 X16.8212 Y8.9549
G01 X16.8068 Y9.0520
G01 X16.7945 Y9.1136
G01 X16.7707 Y9.2088
G01 X16.7524 Y9.2689
G01 X16.7194 Y9.3613
G01 X16.6954 Y9.4193
G01 X16.6534 Y9.5080
G01 X16.6238 Y9.5634
G01 X16.5733 Y9.6476
G01 X16.5384 Y9.6998
G01 X16.4800 Y9.7786
G01 X16.4401 Y9.8272
G01 X16.4332 Y9.8349
G01 X16.4332 Y32.0896
G01 X19.5387 Y35.1951
G01 X19.5490 Y35.1956
G01 X19.6115 Y35.2017
G01 X19.7086 Y35.2161
G01 X19.7702 Y35.2284
G01 X19.8654 Y35.2522
G01 X19.9255 Y35.2705
G01 X20.0179 Y35.3035
G01 X20.0759 Y35.3276
G01 X20.1646 Y35.3695
G01 X20.2200 Y35.3991
G01 X20.3042 Y35.4496
G01 X20.3564 Y35.4845
G01 X20.4352 Y35.5429
G01 X20.4838 Y35.5828
