(G-CODE GENERATED BY FLATCAM v8.991 - www.flatcam.org - Version Date: 2019/12/27)

(Name: Gerber_BoardOutlineLayer.GKO_cutout_cnc)
(Type: G-code from Geometry)
(Units: MM)

(Created on Thursday, 11 July 2024 at 16:56)

(TOOL DIAMETER: 1.0 mm)
(Feedrate: 120.0 mm/min)
(Feedrate_Z: 60.0 mm/min)
(Feedrate rapids 1500.0 mm/min)

(Z_Cut: -2.2 mm)
(DepthPerCut: 0.6 mm <=>4 passes)
(Z_Move: 2.0 mm)
(Z Toolchange: 15.0 mm)
(X,Y Toolchange: 0.0000, 0.0000 mm)
(Z Start: None mm)
(Z End: 15.0 mm)
(Steps per circle: 64)
(Preprocessor Geometry: default)

(X range:    0.3689 ...   46.6541  mm)
(Y range:   -0.0921 ...   50.3841  mm)

(Spindle Speed: None RPM)
G21
G90
G94




G01 F120.00
G00 Z2.0000

M03
G00 X0.3689 Y24.2460
G01 F60.00
G01 Z-0.6000
G01 F120.00
G01 X0.3689 Y0.6350
G01 X0.3697 Y0.6056
G01 X0.3703 Y0.5931
G01 X0.3760 Y0.5345
G01 X0.3779 Y0.5222
G01 X0.3894 Y0.4644
G01 X0.3924 Y0.4523
G01 X0.4095 Y0.3960
G01 X0.4137 Y0.3842
G01 X0.4362 Y0.3298
G01 X0.4415 Y0.3186
G01 X0.4693 Y0.2666
G01 X0.4757 Y0.2559
G01 X0.5084 Y0.2070
G01 X0.5159 Y0.1970
G01 X0.5532 Y0.1515
G01 X0.5616 Y0.1422
G01 X0.6032 Y0.1006
G01 X0.6125 Y0.0922
G01 X0.6580 Y0.0549
G01 X0.6680 Y0.0474
G01 X0.7169 Y0.0147
G01 X0.7276 Y0.0083
G01 X0.7796 Y-0.0195
G01 X0.7908 Y-0.0248
G01 X0.8452 Y-0.0473
G01 X0.8570 Y-0.0515
G01 X0.9133 Y-0.0686
G01 X0.9254 Y-0.0716
G01 X0.9832 Y-0.0831
G01 X0.9955 Y-0.0850
G01 X1.0541 Y-0.0907
G01 X1.0960 Y-0.0921
G01 X45.9270 Y-0.0921
G01 X45.9689 Y-0.0907
G01 X46.0275 Y-0.0850
G01 X46.0398 Y-0.0831
G01 X46.0976 Y-0.0716
G01 X46.1097 Y-0.0686
G01 X46.1660 Y-0.0515
G01 X46.1778 Y-0.0473
G01 X46.2322 Y-0.0248
G01 X46.2434 Y-0.0195
G01 X46.2954 Y0.0083
G01 X46.3061 Y0.0147
G01 X46.3550 Y0.0474
G01 X46.3650 Y0.0549
G01 X46.4105 Y0.0922
G01 X46.4198 Y0.1006
G01 X46.4614 Y0.1422
G01 X46.4698 Y0.1515
G01 X46.5071 Y0.1970
G01 X46.5146 Y0.2070
G01 X46.5473 Y0.2559
G01 X46.5537 Y0.2666
G01 X46.5815 Y0.3186
G01 X46.5868 Y0.3298
G01 X46.6093 Y0.3842
G01 X46.6135 Y0.3960
G01 X46.6306 Y0.4523
G01 X46.6336 Y0.4644
G01 X46.6451 Y0.5222
G01 X46.6470 Y0.5345
G01 X46.6527 Y0.5931
G01 X46.6541 Y0.6350
G01 X46.6541 Y24.2460
G00 X46.6541 Y24.2460
G01 F60.00
G01 Z-1.2000
G01 F120.00
G01 X46.6541 Y0.6350
G01 X46.6527 Y0.5931
G01 X46.6470 Y0.5345
G01 X46.6451 Y0.5222
G01 X46.6336 Y0.4644
G01 X46.6306 Y0.4523
G01 X46.6135 Y0.3960
G01 X46.6093 Y0.3842
G01 X46.5868 Y0.3298
G01 X46.5815 Y0.3186
G01 X46.5537 Y0.2666
G01 X46.5473 Y0.2559
G01 X46.5146 Y0.2070
G01 X46.5071 Y0.1970
G01 X46.4698 Y0.1515
G01 X46.4614 Y0.1422
G01 X46.4198 Y0.1006
G01 X46.4105 Y0.0922
G01 X46.3650 Y0.0549
G01 X46.3550 Y0.0474
G01 X46.3061 Y0.0147
G01 X46.2954 Y0.0083
G01 X46.2434 Y-0.0195
G01 X46.2322 Y-0.0248
G01 X46.1778 Y-0.0473
G01 X46.1660 Y-0.0515
G01 X46.1097 Y-0.0686
G01 X46.0976 Y-0.0716
G01 X46.0398 Y-0.0831
G01 X46.0275 Y-0.0850
G01 X45.9689 Y-0.0907
G01 X45.9270 Y-0.0921
G01 X1.0960 Y-0.0921
G01 X1.0541 Y-0.0907
G01 X0.9955 Y-0.0850
G01 X0.9832 Y-0.0831
G01 X0.9254 Y-0.0716
G01 X0.9133 Y-0.0686
G01 X0.8570 Y-0.0515
G01 X0.8452 Y-0.0473
G01 X0.7908 Y-0.0248
G01 X0.7796 Y-0.0195
G01 X0.7276 Y0.0083
G01 X0.7169 Y0.0147
G01 X0.6680 Y0.0474
G01 X0.6580 Y0.0549
G01 X0.6125 Y0.0922
G01 X0.6032 Y0.1006
G01 X0.5616 Y0.1422
G01 X0.5532 Y0.1515
G01 X0.5159 Y0.1970
G01 X0.5084 Y0.2070
G01 X0.4757 Y0.2559
G01 X0.4693 Y0.2666
G01 X0.4415 Y0.3186
G01 X0.4362 Y0.3298
G01 X0.4137 Y0.3842
G01 X0.4095 Y0.3960
G01 X0.3924 Y0.4523
G01 X0.3894 Y0.4644
G01 X0.3779 Y0.5222
G01 X0.3760 Y0.5345
G01 X0.3703 Y0.5931
G01 X0.3697 Y0.6056
G01 X0.3689 Y0.6350
G01 X0.3689 Y24.2460
G00 X0.3689 Y24.2460
G01 F60.00
G01 Z-1.8000
G01 F120.00
G01 X0.3689 Y0.6350
G01 X0.3697 Y0.6056
G01 X0.3703 Y0.5931
G01 X0.3760 Y0.5345
G01 X0.3779 Y0.5222
G01 X0.3894 Y0.4644
G01 X0.3924 Y0.4523
G01 X0.4095 Y0.3960
G01 X0.4137 Y0.3842
G01 X0.4362 Y0.3298
G01 X0.4415 Y0.3186
G01 X0.4693 Y0.2666
G01 X0.4757 Y0.2559
G01 X0.5084 Y0.2070
G01 X0.5159 Y0.1970
G01 X0.5532 Y0.1515
G01 X0.5616 Y0.1422
G01 X0.6032 Y0.1006
G01 X0.6125 Y0.0922
G01 X0.6580 Y0.0549
G01 X0.6680 Y0.0474
G01 X0.7169 Y0.0147
G01 X0.7276 Y0.0083
G01 X0.7796 Y-0.0195
G01 X0.7908 Y-0.0248
G01 X0.8452 Y-0.0473
G01 X0.8570 Y-0.0515
G01 X0.9133 Y-0.0686
G01 X0.9254 Y-0.0716
G01 X0.9832 Y-0.0831
G01 X0.9955 Y-0.0850
G01 X1.0541 Y-0.0907
G01 X1.0960 Y-0.0921
G01 X45.9270 Y-0.0921
G01 X45.9689 Y-0.0907
G01 X46.0275 Y-0.0850
G01 X46.0398 Y-0.0831
G01 X46.0976 Y-0.0716
G01 X46.1097 Y-0.0686
G01 X46.1660 Y-0.0515
G01 X46.1778 Y-0.0473
G01 X46.2322 Y-0.0248
G01 X46.2434 Y-0.0195
G01 X46.2954 Y0.0083
G01 X46.3061 Y0.0147
G01 X46.3550 Y0.0474
G01 X46.3650 Y0.0549
G01 X46.4105 Y0.0922
G01 X46.4198 Y0.1006
G01 X46.4614 Y0.1422
G01 X46.4698 Y0.1515
G01 X46.5071 Y0.1970
G01 X46.5146 Y0.2070
G01 X46.5473 Y0.2559
G01 X46.5537 Y0.2666
G01 X46.5815 Y0.3186
G01 X46.5868 Y0.3298
G01 X46.6093 Y0.3842
G01 X46.6135 Y0.3960
G01 X46.6306 Y0.4523
G01 X46.6336 Y0.4644
G01 X46.6451 Y0.5222
G01 X46.6470 Y0.5345
G01 X46.6527 Y0.5931
G01 X46.6541 Y0.6350
G01 X46.6541 Y24.2460
G00 X46.6541 Y24.2460
G01 F60.00
G01 Z-2.2000
G01 F120.00
G01 X46.6541 Y0.6350
G01 X46.6527 Y0.5931
G01 X46.6470 Y0.5345
G01 X46.6451 Y0.5222
G01 X46.6336 Y0.4644
G01 X46.6306 Y0.4523
G01 X46.6135 Y0.3960
G01 X46.6093 Y0.3842
G01 X46.5868 Y0.3298
G01 X46.5815 Y0.3186
G01 X46.5537 Y0.2666
G01 X46.5473 Y0.2559
G01 X46.5146 Y0.2070
G01 X46.5071 Y0.1970
G01 X46.4698 Y0.1515
G01 X46.4614 Y0.1422
G01 X46.4198 Y0.1006
G01 X46.4105 Y0.0922
G01 X46.3650 Y0.0549
G01 X46.3550 Y0.0474
G01 X46.3061 Y0.0147
G01 X46.2954 Y0.0083
G01 X46.2434 Y-0.0195
G01 X46.2322 Y-0.0248
G01 X46.1778 Y-0.0473
G01 X46.1660 Y-0.0515
G01 X46.1097 Y-0.0686
G01 X46.0976 Y-0.0716
G01 X46.0398 Y-0.0831
G01 X46.0275 Y-0.0850
G01 X45.9689 Y-0.0907
G01 X45.9270 Y-0.0921
G01 X1.0960 Y-0.0921
G01 X1.0541 Y-0.0907
G01 X0.9955 Y-0.0850
G01 X0.9832 Y-0.0831
G01 X0.9254 Y-0.0716
G01 X0.9133 Y-0.0686
G01 X0.8570 Y-0.0515
G01 X0.8452 Y-0.0473
G01 X0.7908 Y-0.0248
G01 X0.7796 Y-0.0195
G01 X0.7276 Y0.0083
G01 X0.7169 Y0.0147
G01 X0.6680 Y0.0474
G01 X0.6580 Y0.0549
G01 X0.6125 Y0.0922
G01 X0.6032 Y0.1006
G01 X0.5616 Y0.1422
G01 X0.5532 Y0.1515
G01 X0.5159 Y0.1970
G01 X0.5084 Y0.2070
G01 X0.4757 Y0.2559
G01 X0.4693 Y0.2666
G01 X0.4415 Y0.3186
G01 X0.4362 Y0.3298
G01 X0.4137 Y0.3842
G01 X0.4095 Y0.3960
G01 X0.3924 Y0.4523
G01 X0.3894 Y0.4644
G01 X0.3779 Y0.5222
G01 X0.3760 Y0.5345
G01 X0.3703 Y0.5931
G01 X0.3697 Y0.6056
G01 X0.3689 Y0.6350
G01 X0.3689 Y24.2460
G00 Z2.0000
G00 X0.3689 Y26.2460
G01 F60.00
G01 Z-0.6000
G01 F120.00
G01 X0.3689 Y49.6570
G00 X0.3689 Y49.6570
G01 F60.00
G01 Z-1.2000
G01 F120.00
G01 X0.3689 Y26.2460
G00 X0.3689 Y26.2460
G01 F60.00
G01 Z-1.8000
G01 F120.00
G01 X0.3689 Y49.6570
G00 X0.3689 Y49.6570
G01 F60.00
G01 Z-2.2000
G01 F120.00
G01 X0.3689 Y26.2460
G00 Z2.0000
G00 X0.3689 Y49.6570
G01 F60.00
G01 Z-0.6000
G01 F120.00
G01 X0.3703 Y49.6989
G01 X0.3760 Y49.7575
G01 X0.3779 Y49.7698
G01 X0.3894 Y49.8276
G01 X0.3924 Y49.8397
G01 X0.4095 Y49.8960
G01 X0.4137 Y49.9078
G01 X0.4362 Y49.9622
G01 X0.4415 Y49.9734
G01 X0.4693 Y50.0254
G01 X0.4757 Y50.0361
G01 X0.5084 Y50.0850
G01 X0.5159 Y50.0950
G01 X0.5532 Y50.1405
G01 X0.5616 Y50.1498
G01 X0.6032 Y50.1914
G01 X0.6125 Y50.1998
G01 X0.6580 Y50.2371
G01 X0.6680 Y50.2446
G01 X0.7169 Y50.2773
G01 X0.7276 Y50.2837
G01 X0.7796 Y50.3115
G01 X0.7908 Y50.3168
G01 X0.8452 Y50.3393
G01 X0.8570 Y50.3435
G01 X0.9133 Y50.3606
G01 X0.9254 Y50.3636
G01 X0.9832 Y50.3751
G01 X0.9955 Y50.3770
G01 X1.0541 Y50.3827
G01 X1.0960 Y50.3841
G01 X45.9270 Y50.3841
G01 X45.9689 Y50.3827
G01 X46.0275 Y50.3770
G01 X46.0398 Y50.3751
G01 X46.0976 Y50.3636
G01 X46.1097 Y50.3606
G01 X46.1660 Y50.3435
G01 X46.1778 Y50.3393
G01 X46.2322 Y50.3168
G01 X46.2434 Y50.3115
G01 X46.2954 Y50.2837
G01 X46.3061 Y50.2773
G01 X46.3550 Y50.2446
G01 X46.3650 Y50.2371
G01 X46.4105 Y50.1998
G01 X46.4198 Y50.1914
G01 X46.4614 Y50.1498
G01 X46.4698 Y50.1405
G01 X46.5071 Y50.0950
G01 X46.5146 Y50.0850
G01 X46.5473 Y50.0361
G01 X46.5537 Y50.0254
G01 X46.5815 Y49.9734
G01 X46.5868 Y49.9622
G01 X46.6093 Y49.9078
G01 X46.6135 Y49.8960
G01 X46.6306 Y49.8397
G01 X46.6336 Y49.8276
G01 X46.6451 Y49.7698
G01 X46.6470 Y49.7575
G01 X46.6527 Y49.6989
G01 X46.6541 Y49.6570
G01 X46.6541 Y26.2460
G00 X46.6541 Y26.2460
G01 F60.00
G01 Z-1.2000
G01 F120.00
G01 X46.6541 Y49.6570
G01 X46.6527 Y49.6989
G01 X46.6470 Y49.7575
G01 X46.6451 Y49.7698
G01 X46.6336 Y49.8276
G01 X46.6306 Y49.8397
G01 X46.6135 Y49.8960
G01 X46.6093 Y49.9078
G01 X46.5868 Y49.9622
G01 X46.5815 Y49.9734
G01 X46.5537 Y50.0254
G01 X46.5473 Y50.0361
G01 X46.5146 Y50.0850
G01 X46.5071 Y50.0950
G01 X46.4698 Y50.1405
G01 X46.4614 Y50.1498
G01 X46.4198 Y50.1914
G01 X46.4105 Y50.1998
G01 X46.3650 Y50.2371
G01 X46.3550 Y50.2446
G01 X46.3061 Y50.2773
G01 X46.2954 Y50.2837
G01 X46.2434 Y50.3115
G01 X46.2322 Y50.3168
G01 X46.1778 Y50.3393
G01 X46.1660 Y50.3435
G01 X46.1097 Y50.3606
G01 X46.0976 Y50.3636
G01 X46.0398 Y50.3751
G01 X46.0275 Y50.3770
G01 X45.9689 Y50.3827
G01 X45.9270 Y50.3841
G01 X1.0960 Y50.3841
G01 X1.0541 Y50.3827
G01 X0.9955 Y50.3770
G01 X0.9832 Y50.3751
G01 X0.9254 Y50.3636
G01 X0.9133 Y50.3606
G01 X0.8570 Y50.3435
G01 X0.8452 Y50.3393
G01 X0.7908 Y50.3168
G01 X0.7796 Y50.3115
G01 X0.7276 Y50.2837
G01 X0.7169 Y50.2773
G01 X0.6680 Y50.2446
G01 X0.6580 Y50.2371
G01 X0.6125 Y50.1998
G01 X0.6032 Y50.1914
G01 X0.5616 Y50.1498
G01 X0.5532 Y50.1405
G01 X0.5159 Y50.0950
G01 X0.5084 Y50.0850
G01 X0.4757 Y50.0361
G01 X0.4693 Y50.0254
G01 X0.4415 Y49.9734
G01 X0.4362 Y49.9622
G01 X0.4137 Y49.9078
G01 X0.4095 Y49.8960
G01 X0.3924 Y49.8397
G01 X0.3894 Y49.8276
G01 X0.3779 Y49.7698
G01 X0.3760 Y49.7575
G01 X0.3703 Y49.6989
G01 X0.3689 Y49.6570
G00 X0.3689 Y49.6570
G01 F60.00
G01 Z-1.8000
G01 F120.00
G01 X0.3703 Y49.6989
G01 X0.3760 Y49.7575
G01 X0.3779 Y49.7698
G01 X0.3894 Y49.8276
G01 X0.3924 Y49.8397
G01 X0.4095 Y49.8960
G01 X0.4137 Y49.9078
G01 X0.4362 Y49.9622
G01 X0.4415 Y49.9734
G01 X0.4693 Y50.0254
G01 X0.4757 Y50.0361
G01 X0.5084 Y50.0850
G01 X0.5159 Y50.0950
G01 X0.5532 Y50.1405
G01 X0.5616 Y50.1498
G01 X0.6032 Y50.1914
G01 X0.6125 Y50.1998
G01 X0.6580 Y50.2371
G01 X0.6680 Y50.2446
G01 X0.7169 Y50.2773
G01 X0.7276 Y50.2837
G01 X0.7796 Y50.3115
G01 X0.7908 Y50.3168
G01 X0.8452 Y50.3393
G01 X0.8570 Y50.3435
G01 X0.9133 Y50.3606
G01 X0.9254 Y50.3636
G01 X0.9832 Y50.3751
G01 X0.9955 Y50.3770
G01 X1.0541 Y50.3827
G01 X1.0960 Y50.3841
G01 X45.9270 Y50.3841
G01 X45.9689 Y50.3827
G01 X46.0275 Y50.3770
G01 X46.0398 Y50.3751
G01 X46.0976 Y50.3636
G01 X46.1097 Y50.3606
G01 X46.1660 Y50.3435
G01 X46.1778 Y50.3393
G01 X46.2322 Y50.3168
G01 X46.2434 Y50.3115
G01 X46.2954 Y50.2837
G01 X46.3061 Y50.2773
G01 X46.3550 Y50.2446
G01 X46.3650 Y50.2371
G01 X46.4105 Y50.1998
G01 X46.4198 Y50.1914
G01 X46.4614 Y50.1498
G01 X46.4698 Y50.1405
G01 X46.5071 Y50.0950
G01 X46.5146 Y50.0850
G01 X46.5473 Y50.0361
G01 X46.5537 Y50.0254
G01 X46.5815 Y49.9734
G01 X46.5868 Y49.9622
G01 X46.6093 Y49.9078
G01 X46.6135 Y49.8960
G01 X46.6306 Y49.8397
G01 X46.6336 Y49.8276
G01 X46.6451 Y49.7698
G01 X46.6470 Y49.7575
G01 X46.6527 Y49.6989
G01 X46.6541 Y49.6570
G01 X46.6541 Y26.2460
G00 X46.6541 Y26.2460
G01 F60.00
G01 Z-2.2000
G01 F120.00
G01 X46.6541 Y49.6570
G01 X46.6527 Y49.6989
G01 X46.6470 Y49.7575
G01 X46.6451 Y49.7698
G01 X46.6336 Y49.8276
G01 X46.6306 Y49.8397
G01 X46.6135 Y49.8960
G01 X46.6093 Y49.9078
G01 X46.5868 Y49.9622
G01 X46.5815 Y49.9734
G01 X46.5537 Y50.0254
G01 X46.5473 Y50.0361
G01 X46.5146 Y50.0850
G01 X46.5071 Y50.0950
G01 X46.4698 Y50.1405
G01 X46.4614 Y50.1498
G01 X46.4198 Y50.1914
G01 X46.4105 Y50.1998
G01 X46.3650 Y50.2371
G01 X46.3550 Y50.2446
G01 X46.3061 Y50.2773
G01 X46.2954 Y50.2837
G01 X46.2434 Y50.3115
G01 X46.2322 Y50.3168
G01 X46.1778 Y50.3393
G01 X46.1660 Y50.3435
G01 X46.1097 Y50.3606
G01 X46.0976 Y50.3636
G01 X46.0398 Y50.3751
G01 X46.0275 Y50.3770
G01 X45.9689 Y50.3827
G01 X45.9270 Y50.3841
G01 X1.0960 Y50.3841
G01 X1.0541 Y50.3827
G01 X0.9955 Y50.3770
G01 X0.9832 Y50.3751
G01 X0.9254 Y50.3636
G01 X0.9133 Y50.3606
G01 X0.8570 Y50.3435
G01 X0.8452 Y50.3393
G01 X0.7908 Y50.3168
G01 X0.7796 Y50.3115
G01 X0.7276 Y50.2837
G01 X0.7169 Y50.2773
G01 X0.6680 Y50.2446
G01 X0.6580 Y50.2371
G01 X0.6125 Y50.1998
G01 X0.6032 Y50.1914
G01 X0.5616 Y50.1498
G01 X0.5532 Y50.1405
G01 X0.5159 Y50.0950
G01 X0.5084 Y50.0850
G01 X0.4757 Y50.0361
G01 X0.4693 Y50.0254
G01 X0.4415 Y49.9734
G01 X0.4362 Y49.9622
G01 X0.4137 Y49.9078
G01 X0.4095 Y49.8960
G01 X0.3924 Y49.8397
G01 X0.3894 Y49.8276
G01 X0.3779 Y49.7698
G01 X0.3760 Y49.7575
G01 X0.3703 Y49.6989
G01 X0.3689 Y49.6570
G00 Z2.0000
M05
G00 Z2.0000
G00 Z15.00
G00 X0.0 Y0.0

